assets/luts/cool_mist.cube
TITLE "Cool Mist"
LUT_3D_SIZE 9
0.041118 0.049918 0.067518
0.136197 0.052597 0.070197
0.231276 0.055276 0.072876
0.326354 0.057954 0.075554
0.421433 0.060633 0.078233
0.516512 0.063312 0.080912
0.611591 0.065991 0.083591
0.706669 0.068669 0.086269
0.801748 0.071348 0.088948
0.050452 0.154952 0.076852
0.145530 0.157630 0.079530
0.240609 0.160309 0.082209
0.335688 0.162988 0.084888
0.430767 0.165667 0.087567
0.525845 0.168345 0.090245
0.620924 0.171024 0.092924
0.716003 0.173703 0.095603
0.811082 0.176382 0.098282
0.059785 0.259985 0.086185
0.154864 0.262664 0.088864
0.249942 0.265342 0.091542
0.345021 0.268021 0.094221
0.440100 0.270700 0.096900
0.535179 0.273379 0.099579
0.630257 0.276057 0.102257
0.725336 0.278736 0.104936
0.820415 0.281415 0.107615
0.069118 0.365018 0.095518
0.164197 0.367697 0.098197
0.259276 0.370376 0.100876
0.354355 0.373055 0.103555
0.449433 0.375733 0.106233
0.544512 0.378412 0.108912
0.639591 0.381091 0.111591
0.734670 0.383770 0.114270
0.829748 0.386448 0.116948
0.078452 0.470052 0.104852
0.173530 0.472730 0.107530
0.268609 0.475409 0.110209
0.363688 0.478088 0.112888
0.458767 0.480767 0.115567
0.553845 0.483445 0.118245
0.648924 0.486124 0.120924
0.744003 0.488803 0.123603
0.839082 0.491482 0.126282
0.087785 0.575085 0.114185
0.182864 0.577764 0.116864
0.277942 0.580442 0.119542
0.373021 0.583121 0.122221
0.468100 0.585800 0.124900
0.563179 0.588479 0.127579
0.658258 0.591158 0.130258
0.753336 0.593836 0.132936
0.848415 0.596515 0.135615
0.097118 0.680118 0.123518
0.192197 0.682797 0.126197
0.287276 0.685476 0.128876
0.382355 0.688155 0.131555
0.477433 0.690833 0.134233
0.572512 0.693512 0.136912
0.667591 0.696191 0.139591
0.762670 0.698870 0.142270
0.857748 0.701548 0.144948
0.106452 0.785152 0.132852
0.201530 0.787830 0.135530
0.296609 0.790509 0.138209
0.391688 0.793188 0.140888
0.486767 0.795867 0.143567
0.581845 0.798545 0.146245
0.676924 0.801224 0.148924
0.772003 0.803903 0.151603
0.867082 0.806582 0.154282
0.115785 0.890185 0.142185
0.210864 0.892864 0.144864
0.305943 0.895543 0.147543
0.401021 0.898221 0.150221
0.496100 0.900900 0.152900
0.591179 0.903579 0.155579
0.686258 0.906258 0.158258
0.781336 0.908936 0.160936
0.876415 0.911615 0.163615
0.042115 0.050915 0.169715
0.137193 0.053593 0.172393
0.232272 0.056272 0.175072
0.327351 0.058951 0.177751
0.422430 0.061630 0.180430
0.517508 0.064308 0.183108
0.612587 0.066987 0.185787
0.707666 0.069666 0.188466
0.802745 0.072345 0.191145
0.051448 0.155948 0.179048
0.146527 0.158627 0.181727
0.241605 0.161305 0.184405
0.336684 0.163984 0.187084
0.431763 0.166663 0.189763
0.526842 0.169342 0.192442
0.621920 0.172020 0.195120
0.716999 0.174699 0.197799
0.812078 0.177378 0.200478
0.060781 0.260981 0.188381
0.155860 0.263660 0.191060
0.250939 0.266339 0.193739
0.346018 0.269018 0.196418
0.441096 0.271696 0.199096
0.536175 0.274375 0.201775
0.631254 0.277054 0.204454
0.726333 0.279733 0.207133
0.821411 0.282411 0.209811
0.070115 0.366015 0.197715
0.165193 0.368693 0.200393
0.260272 0.371372 0.203072
0.355351 0.374051 0.205751
0.450430 0.376730 0.208430
0.545508 0.379408 0.211108
0.640587 0.382087 0.213787
0.735666 0.384766 0.216466
0.830745 0.387445 0.219145
0.079448 0.471048 0.207048
0.174527 0.473727 0.209727
0.269605 0.476405 0.212405
0.364684 0.479084 0.215084
0.459763 0.481763 0.217763
0.554842 0.484442 0.220442
0.649921 0.487121 0.223121
0.744999 0.489799 0.225799
0.840078 0.492478 0.228478
0.088781 0.576081 0.216381
0.183860 0.578760 0.219060
0.278939 0.581439 0.221739
0.374018 0.584118 0.224418
0.469096 0.586796 0.227096
0.564175 0.589475 0.229775
0.659254 0.592154 0.232454
0.754333 0.594833 0.235133
0.849411 0.597511 0.237811
0.098115 0.681115 0.225715
0.193193 0.683793 0.228393
0.288272 0.686472 0.231072
0.383351 0.689151 0.233751
0.478430 0.691830 0.236430
0.573508 0.694508 0.239108
0.668587 0.697187 0.241787
0.763666 0.699866 0.244466
0.858745 0.702545 0.247145
0.107448 0.786148 0.235048
0.202527 0.788827 0.237727
0.297606 0.791506 0.240406
0.392684 0.794184 0.243084
0.487763 0.796863 0.245763
0.582842 0.799542 0.248442
0.677921 0.802221 0.251121
0.772999 0.804899 0.253799
0.868078 0.807578 0.256478
0.116781 0.891181 0.244381
0.211860 0.893860 0.247060
0.306939 0.896539 0.249739
0.402018 0.899218 0.252418
0.497096 0.901896 0.255096
0.592175 0.904575 0.257775
0.687254 0.907254 0.260454
0.782333 0.909933 0.263133
0.877411 0.912611 0.265811
0.043111 0.051911 0.271911
0.138190 0.054590 0.274590
0.233268 0.057268 0.277268
0.328347 0.059947 0.279947
0.423426 0.062626 0.282626
0.518505 0.065305 0.285305
0.613583 0.067983 0.287983
0.708662 0.070662 0.290662
0.803741 0.073341 0.293341
0.052444 0.156944 0.281244
0.147523 0.159623 0.283923
0.242602 0.162302 0.286602
0.337681 0.164981 0.289281
0.432759 0.167659 0.291959
0.527838 0.170338 0.294638
0.622917 0.173017 0.297317
0.717996 0.175696 0.299996
0.813074 0.178374 0.302674
0.061778 0.261978 0.290578
0.156856 0.264656 0.293256
0.251935 0.267335 0.295935
0.347014 0.270014 0.298614
0.442093 0.272693 0.301293
0.537171 0.275371 0.303971
0.632250 0.278050 0.306650
0.727329 0.280729 0.309329
0.822408 0.283408 0.312008
0.071111 0.367011 0.299911
0.166190 0.369690 0.302590
0.261268 0.372368 0.305268
0.356347 0.375047 0.307947
0.451426 0.377726 0.310626
0.546505 0.380405 0.313305
0.641584 0.383084 0.315984
0.736662 0.385762 0.318662
0.831741 0.388441 0.321341
0.080444 0.472044 0.309244
0.175523 0.474723 0.311923
0.270602 0.477402 0.314602
0.365681 0.480081 0.317281
0.460759 0.482759 0.319959
0.555838 0.485438 0.322638
0.650917 0.488117 0.325317
0.745996 0.490796 0.327996
0.841074 0.493474 0.330674
0.089778 0.577078 0.318578
0.184856 0.579756 0.321256
0.279935 0.582435 0.323935
0.375014 0.585114 0.326614
0.470093 0.587793 0.329293
0.565171 0.590471 0.331971
0.660250 0.593150 0.334650
0.755329 0.595829 0.337329
0.850408 0.598508 0.340008
0.099111 0.682111 0.327911
0.194190 0.684790 0.330590
0.289269 0.687469 0.333269
0.384347 0.690147 0.335947
0.479426 0.692826 0.338626
0.574505 0.695505 0.341305
0.669584 0.698184 0.343984
0.764662 0.700862 0.346662
0.859741 0.703541 0.349341
0.108444 0.787144 0.337244
0.203523 0.789823 0.339923
0.298602 0.792502 0.342602
0.393681 0.795181 0.345281
0.488759 0.797859 0.347959
0.583838 0.800538 0.350638
0.678917 0.803217 0.353317
0.773996 0.805896 0.355996
0.869074 0.808574 0.358674
0.117778 0.892178 0.346578
0.212857 0.894857 0.349257
0.307935 0.897535 0.351935
0.403014 0.900214 0.354614
0.498093 0.902893 0.357293
0.593172 0.905572 0.359972
0.688250 0.908250 0.362650
0.783329 0.910929 0.365329
0.878408 0.913608 0.368008
0.044107 0.052907 0.374107
0.139186 0.055586 0.376786
0.234265 0.058265 0.379465
0.329344 0.060944 0.382144
0.424422 0.063622 0.384822
0.519501 0.066301 0.387501
0.614580 0.068980 0.390180
0.709659 0.071659 0.392859
0.804737 0.074337 0.395537
0.053441 0.157941 0.383441
0.148519 0.160619 0.386119
0.243598 0.163298 0.388798
0.338677 0.165977 0.391477
0.433756 0.168656 0.394156
0.528834 0.171334 0.396834
0.623913 0.174013 0.399513
0.718992 0.176692 0.402192
0.814071 0.179371 0.404871
0.062774 0.262974 0.392774
0.157853 0.265653 0.395453
0.252931 0.268331 0.398131
0.348010 0.271010 0.400810
0.443089 0.273689 0.403489
0.538168 0.276368 0.406168
0.633247 0.279047 0.408847
0.728325 0.281725 0.411525
0.823404 0.284404 0.414204
0.072107 0.368007 0.402107
0.167186 0.370686 0.404786
0.262265 0.373365 0.407465
0.357344 0.376044 0.410144
0.452422 0.378722 0.412822
0.547501 0.381401 0.415501
0.642580 0.384080 0.418180
0.737659 0.386759 0.420859
0.832737 0.389437 0.423537
0.081441 0.473041 0.411441
0.176519 0.475719 0.414119
0.271598 0.478398 0.416798
0.366677 0.481077 0.419477
0.461756 0.483756 0.422156
0.556834 0.486434 0.424834
0.651913 0.489113 0.427513
0.746992 0.491792 0.430192
0.842071 0.494471 0.432871
0.090774 0.578074 0.420774
0.185853 0.580753 0.423453
0.280932 0.583432 0.426132
0.376010 0.586110 0.428810
0.471089 0.588789 0.431489
0.566168 0.591468 0.434168
0.661247 0.594147 0.436847
0.756325 0.596825 0.439525
0.851404 0.599504 0.442204
0.100107 0.683107 0.430107
0.195186 0.685786 0.432786
0.290265 0.688465 0.435465
0.385344 0.691144 0.438144
0.480422 0.693822 0.440822
0.575501 0.696501 0.443501
0.670580 0.699180 0.446180
0.765659 0.701859 0.448859
0.860737 0.704537 0.451537
0.109441 0.788141 0.439441
0.204520 0.790820 0.442120
0.299598 0.793498 0.444798
0.394677 0.796177 0.447477
0.489756 0.798856 0.450156
0.584835 0.801535 0.452835
0.679913 0.804213 0.455513
0.774992 0.806892 0.458192
0.870071 0.809571 0.460871
0.118774 0.893174 0.448774
0.213853 0.895853 0.451453
0.308932 0.898532 0.454132
0.404010 0.901210 0.456810
0.499089 0.903889 0.459489
0.594168 0.906568 0.462168
0.689247 0.909247 0.464847
0.784325 0.911925 0.467525
0.879404 0.914604 0.470204
0.045104 0.053904 0.476304
0.140182 0.056582 0.478982
0.235261 0.059261 0.481661
0.330340 0.061940 0.484340
0.425419 0.064619 0.487019
0.520497 0.067297 0.489697
0.615576 0.069976 0.492376
0.710655 0.072655 0.495055
0.805734 0.075334 0.497734
0.054437 0.158937 0.485637
0.149516 0.161616 0.488316
0.244594 0.164294 0.490994
0.339673 0.166973 0.493673
0.434752 0.169652 0.496352
0.529831 0.172331 0.499031
0.624910 0.175010 0.501710
0.719988 0.177688 0.504388
0.815067 0.180367 0.507067
0.063770 0.263970 0.494970
0.158849 0.266649 0.497649
0.253928 0.269328 0.500328
0.349007 0.272007 0.503007
0.444085 0.274685 0.505685
0.539164 0.277364 0.508364
0.634243 0.280043 0.511043
0.729322 0.282722 0.513722
0.824400 0.285400 0.516400
0.073104 0.369004 0.504304
0.168182 0.371682 0.506982
0.263261 0.374361 0.509661
0.358340 0.377040 0.512340
0.453419 0.379719 0.515019
0.548497 0.382397 0.517697
0.643576 0.385076 0.520376
0.738655 0.387755 0.523055
0.833734 0.390434 0.525734
0.082437 0.474037 0.513637
0.177516 0.476716 0.516316
0.272595 0.479395 0.518995
0.367673 0.482073 0.521673
0.462752 0.484752 0.524352
0.557831 0.487431 0.527031
0.652910 0.490110 0.529710
0.747988 0.492788 0.532388
0.843067 0.495467 0.535067
0.091770 0.579070 0.522970
0.186849 0.581749 0.525649
0.281928 0.584428 0.528328
0.377007 0.587107 0.531007
0.472085 0.589785 0.533685
0.567164 0.592464 0.536364
0.662243 0.595143 0.539043
0.757322 0.597822 0.541722
0.852400 0.600500 0.544400
0.101104 0.684104 0.532304
0.196183 0.686783 0.534983
0.291261 0.689461 0.537661
0.386340 0.692140 0.540340
0.481419 0.694819 0.543019
0.576498 0.697498 0.545698
0.671576 0.700176 0.548376
0.766655 0.702855 0.551055
0.861734 0.705534 0.553734
0.110437 0.789137 0.541637
0.205516 0.791816 0.544316
0.300595 0.794495 0.546995
0.395673 0.797173 0.549673
0.490752 0.799852 0.552352
0.585831 0.802531 0.555031
0.680910 0.805210 0.557710
0.775988 0.807888 0.560388
0.871067 0.810567 0.563067
0.119770 0.894170 0.550970
0.214849 0.896849 0.553649
0.309928 0.899528 0.556328
0.405007 0.902207 0.559007
0.500086 0.904886 0.561686
0.595164 0.907564 0.564364
0.690243 0.910243 0.567043
0.785322 0.912922 0.569722
0.880401 0.915601 0.572401
0.046100 0.054900 0.578500
0.141179 0.057579 0.581179
0.236257 0.060257 0.583857
0.331336 0.062936 0.586536
0.426415 0.065615 0.589215
0.521494 0.068294 0.591894
0.616573 0.070973 0.594573
0.711651 0.073651 0.597251
0.806730 0.076330 0.599930
0.055433 0.159933 0.587833
0.150512 0.162612 0.590512
0.245591 0.165291 0.593191
0.340670 0.167970 0.595870
0.435748 0.170648 0.598548
0.530827 0.173327 0.601227
0.625906 0.176006 0.603906
0.720985 0.178685 0.606585
0.816063 0.181363 0.609263
0.064767 0.264967 0.597167
0.159845 0.267645 0.599845
0.254924 0.270324 0.602524
0.350003 0.273003 0.605203
0.445082 0.275682 0.607882
0.540160 0.278360 0.610560
0.635239 0.281039 0.613239
0.730318 0.283718 0.615918
0.825397 0.286397 0.618597
0.074100 0.370000 0.606500
0.169179 0.372679 0.609179
0.264258 0.375358 0.611858
0.359336 0.378036 0.614536
0.454415 0.380715 0.617215
0.549494 0.383394 0.619894
0.644573 0.386073 0.622573
0.739651 0.388751 0.625251
0.834730 0.391430 0.627930
0.083433 0.475033 0.615833
0.178512 0.477712 0.618512
0.273591 0.480391 0.621191
0.368670 0.483070 0.623870
0.463748 0.485748 0.626548
0.558827 0.488427 0.629227
0.653906 0.491106 0.631906
0.748985 0.493785 0.634585
0.844063 0.496463 0.637263
0.092767 0.580067 0.625167
0.187846 0.582746 0.627846
0.282924 0.585424 0.630524
0.378003 0.588103 0.633203
0.473082 0.590782 0.635882
0.568161 0.593461 0.638561
0.663239 0.596139 0.641239
0.758318 0.598818 0.643918
0.853397 0.601497 0.646597
0.102100 0.685100 0.634500
0.197179 0.687779 0.637179
0.292258 0.690458 0.639858
0.387336 0.693136 0.642536
0.482415 0.695815 0.645215
0.577494 0.698494 0.647894
0.672573 0.701173 0.650573
0.767651 0.703851 0.653251
0.862730 0.706530 0.655930
0.111433 0.790133 0.643833
0.206512 0.792812 0.646512
0.301591 0.795491 0.649191
0.396670 0.798170 0.651870
0.491749 0.800849 0.654549
0.586827 0.803527 0.657227
0.681906 0.806206 0.659906
0.776985 0.808885 0.662585
0.872064 0.811564 0.665264
0.120767 0.895167 0.653167
0.215846 0.897846 0.655846
0.310924 0.900524 0.658524
0.406003 0.903203 0.661203
0.501082 0.905882 0.663882
0.596161 0.908561 0.666561
0.691239 0.911239 0.669239
0.786318 0.913918 0.671918
0.881397 0.916597 0.674597
0.047096 0.055896 0.680696
0.142175 0.058575 0.683375
0.237254 0.061254 0.686054
0.332333 0.063933 0.688733
0.427411 0.066611 0.691411
0.522490 0.069290 0.694090
0.617569 0.071969 0.696769
0.712648 0.074648 0.699448
0.807726 0.077326 0.702126
0.056430 0.160930 0.690030
0.151508 0.163608 0.692708
0.246587 0.166287 0.695387
0.341666 0.168966 0.698066
0.436745 0.171645 0.700745
0.531823 0.174323 0.703423
0.626902 0.177002 0.706102
0.721981 0.179681 0.708781
0.817060 0.182360 0.711460
0.065763 0.265963 0.699363
0.160842 0.268642 0.702042
0.255921 0.271321 0.704721
0.350999 0.273999 0.707399
0.446078 0.276678 0.710078
0.541157 0.279357 0.712757
0.636236 0.282036 0.715436
0.731314 0.284714 0.718114
0.826393 0.287393 0.720793
0.075096 0.370996 0.708696
0.170175 0.373675 0.711375
0.265254 0.376354 0.714054
0.360333 0.379033 0.716733
0.455411 0.381711 0.719411
0.550490 0.384390 0.722090
0.645569 0.387069 0.724769
0.740648 0.389748 0.727448
0.835726 0.392426 0.730126
0.084430 0.476030 0.718030
0.179509 0.478709 0.720709
0.274587 0.481387 0.723387
0.369666 0.484066 0.726066
0.464745 0.486745 0.728745
0.559824 0.489424 0.731424
0.654902 0.492102 0.734102
0.749981 0.494781 0.736781
0.845060 0.497460 0.739460
0.093763 0.581063 0.727363
0.188842 0.583742 0.730042
0.283921 0.586421 0.732721
0.378999 0.589099 0.735399
0.474078 0.591778 0.738078
0.569157 0.594457 0.740757
0.664236 0.597136 0.743436
0.759314 0.599814 0.746114
0.854393 0.602493 0.748793
0.103096 0.686096 0.736696
0.198175 0.688775 0.739375
0.293254 0.691454 0.742054
0.388333 0.694133 0.744733
0.483412 0.696812 0.747412
0.578490 0.699490 0.750090
0.673569 0.702169 0.752769
0.768648 0.704848 0.755448
0.863727 0.707527 0.758127
0.112430 0.791130 0.746030
0.207509 0.793809 0.748709
0.302587 0.796487 0.751387
0.397666 0.799166 0.754066
0.492745 0.801845 0.756745
0.587824 0.804524 0.759424
0.682902 0.807202 0.762102
0.777981 0.809881 0.764781
0.873060 0.812560 0.767460
0.121763 0.896163 0.755363
0.216842 0.898842 0.758042
0.311921 0.901521 0.760721
0.406999 0.904199 0.763399
0.502078 0.906878 0.766078
0.597157 0.909557 0.768757
0.692236 0.912236 0.771436
0.787315 0.914915 0.774115
0.882393 0.917593 0.776793
0.048093 0.056893 0.782893
0.143171 0.059571 0.785571
0.238250 0.062250 0.788250
0.333329 0.064929 0.790929
0.428408 0.067608 0.793608
0.523486 0.070286 0.796286
0.618565 0.072965 0.798965
0.713644 0.075644 0.801644
0.808723 0.078323 0.804323
0.057426 0.161926 0.792226
0.152505 0.164605 0.794905
0.247584 0.167284 0.797584
0.342662 0.169962 0.800262
0.437741 0.172641 0.802941
0.532820 0.175320 0.805620
0.627899 0.177999 0.808299
0.722977 0.180677 0.810977
0.818056 0.183356 0.813656
0.066759 0.266959 0.801559
0.161838 0.269638 0.804238
0.256917 0.272317 0.806917
0.351996 0.274996 0.809596
0.447074 0.277674 0.812274
0.542153 0.280353 0.814953
0.637232 0.283032 0.817632
0.732311 0.285711 0.820311
0.827389 0.288389 0.822989
0.076093 0.371993 0.810893
0.171172 0.374672 0.813572
0.266250 0.377350 0.816250
0.361329 0.380029 0.818929
0.456408 0.382708 0.821608
0.551487 0.385387 0.824287
0.646565 0.388065 0.826965
0.741644 0.390744 0.829644
0.836723 0.393423 0.832323
0.085426 0.477026 0.820226
0.180505 0.479705 0.822905
0.275584 0.482384 0.825584
0.370662 0.485062 0.828262
0.465741 0.487741 0.830941
0.560820 0.490420 0.833620
0.655899 0.493099 0.836299
0.750977 0.495777 0.838977
0.846056 0.498456 0.841656
0.094759 0.582059 0.829559
0.189838 0.584738 0.832238
0.284917 0.587417 0.834917
0.379996 0.590096 0.837596
0.475075 0.592775 0.840275
0.570153 0.595453 0.842953
0.665232 0.598132 0.845632
0.760311 0.600811 0.848311
0.855390 0.603490 0.850990
0.104093 0.687093 0.838893
0.199172 0.689772 0.841572
0.294250 0.692450 0.844250
0.389329 0.695129 0.846929
0.484408 0.697808 0.849608
0.579487 0.700487 0.852287
0.674565 0.703165 0.854965
0.769644 0.705844 0.857644
0.864723 0.708523 0.860323
0.113426 0.792126 0.848226
0.208505 0.794805 0.850905
0.303584 0.797484 0.853584
0.398662 0.800162 0.856262
0.493741 0.802841 0.858941
0.588820 0.805520 0.861620
0.683899 0.808199 0.864299
0.778978 0.810878 0.866978
0.874056 0.813556 0.869656
0.122760 0.897160 0.857560
0.217838 0.899838 0.860238
0.312917 0.902517 0.862917
0.407996 0.905196 0.865596
0.503075 0.907875 0.868275
0.598153 0.910553 0.870953
0.693232 0.913232 0.873632
0.788311 0.915911 0.876311
0.883390 0.918590 0.878990
0.049089 0.057889 0.885089
0.144168 0.060568 0.887768
0.239247 0.063247 0.890447
0.334325 0.065925 0.893125
0.429404 0.068604 0.895804
0.524483 0.071283 0.898483
0.619562 0.073962 0.901162
0.714640 0.076640 0.903840
0.809719 0.079319 0.906519
0.058422 0.162922 0.894422
0.153501 0.165601 0.897101
0.248580 0.168280 0.899780
0.343659 0.170959 0.902459
0.438737 0.173637 0.905137
0.533816 0.176316 0.907816
0.628895 0.178995 0.910495
0.723974 0.181674 0.913174
0.819052 0.184352 0.915852
0.067756 0.267956 0.903756
0.162835 0.270635 0.906435
0.257913 0.273313 0.909113
0.352992 0.275992 0.911792
0.448071 0.278671 0.914471
0.543150 0.281350 0.917150
0.638228 0.284028 0.919828
0.733307 0.286707 0.922507
0.828386 0.289386 0.925186
0.077089 0.372989 0.913089
0.172168 0.375668 0.915768
0.267247 0.378347 0.918447
0.362325 0.381025 0.921125
0.457404 0.383704 0.923804
0.552483 0.386383 0.926483
0.647562 0.389062 0.929162
0.742640 0.391740 0.931840
0.837719 0.394419 0.934519
0.086422 0.478022 0.922422
0.181501 0.480701 0.925101
0.276580 0.483380 0.927780
0.371659 0.486059 0.930459
0.466738 0.488738 0.933138
0.561816 0.491416 0.935816
0.656895 0.494095 0.938495
0.751974 0.496774 0.941174
0.847053 0.499453 0.943853
0.095756 0.583056 0.931756
0.190835 0.585735 0.934435
0.285913 0.588413 0.937113
0.380992 0.591092 0.939792
0.476071 0.593771 0.942471
0.571150 0.596450 0.945150
0.666228 0.599128 0.947828
0.761307 0.601807 0.950507
0.856386 0.604486 0.953186
0.105089 0.688089 0.941089
0.200168 0.690768 0.943768
0.295247 0.693447 0.946447
0.390325 0.696125 0.949125
0.485404 0.698804 0.951804
0.580483 0.701483 0.954483
0.675562 0.704162 0.957162
0.770641 0.706841 0.959841
0.865719 0.709519 0.962519
0.114423 0.793123 0.950423
0.209501 0.795801 0.953101
0.304580 0.798480 0.955780
0.399659 0.801159 0.958459
0.494738 0.803838 0.961138
0.589816 0.806516 0.963816
0.684895 0.809195 0.966495
0.779974 0.811874 0.969174
0.875053 0.814553 0.971853
0.123756 0.898156 0.959756
0.218835 0.900835 0.962435
0.313913 0.903513 0.965113
0.408992 0.906192 0.967792
0.504071 0.908871 0.970471
0.599150 0.911550 0.973150
0.694228 0.914228 0.975828
0.789307 0.916907 0.978507
0.884386 0.919586 0.981186
