assets/luts/cool_mist.cube
TITLE "Cool Mist"
LUT_3D_SIZE 5
0.041118 0.049918 0.067518
0.231276 0.055276 0.072876
0.421433 0.060633 0.078233
0.611591 0.065991 0.083591
0.801748 0.071348 0.088948
0.059785 0.259985 0.086185
0.249942 0.265342 0.091542
0.440100 0.270700 0.096900
0.630257 0.276057 0.102257
0.820415 0.281415 0.107615
0.078452 0.470052 0.104852
0.268609 0.475409 0.110209
0.458767 0.480767 0.115567
0.648924 0.486124 0.120924
0.839082 0.491482 0.126282
0.097118 0.680118 0.123518
0.287276 0.685476 0.128876
0.477433 0.690833 0.134233
0.667591 0.696191 0.139591
0.857748 0.701548 0.144948
0.115785 0.890185 0.142185
0.305943 0.895543 0.147543
0.496100 0.900900 0.152900
0.686258 0.906258 0.158258
0.876415 0.911615 0.163615
0.043111 0.051911 0.271911
0.233268 0.057268 0.277268
0.423426 0.062626 0.282626
0.613583 0.067983 0.287983
0.803741 0.073341 0.293341
0.061778 0.261978 0.290578
0.251935 0.267335 0.295935
0.442093 0.272693 0.301293
0.632250 0.278050 0.306650
0.822408 0.283408 0.312008
0.080444 0.472044 0.309244
0.270602 0.477402 0.314602
0.460759 0.482759 0.319959
0.650917 0.488117 0.325317
0.841074 0.493474 0.330674
0.099111 0.682111 0.327911
0.289269 0.687469 0.333269
0.479426 0.692826 0.338626
0.669584 0.698184 0.343984
0.859741 0.703541 0.349341
0.117778 0.892178 0.346578
0.307935 0.897535 0.351935
0.498093 0.902893 0.357293
0.688250 0.908250 0.362650
0.878408 0.913608 0.368008
0.045104 0.053904 0.476304
0.235261 0.059261 0.481661
0.425419 0.064619 0.487019
0.615576 0.069976 0.492376
0.805734 0.075334 0.497734
0.063770 0.263970 0.494970
0.253928 0.269328 0.500328
0.444085 0.274685 0.505685
0.634243 0.280043 0.511043
0.824400 0.285400 0.516400
0.082437 0.474037 0.513637
0.272595 0.479395 0.518995
0.462752 0.484752 0.524352
0.652910 0.490110 0.529710
0.843067 0.495467 0.535067
0.101104 0.684104 0.532304
0.291261 0.689461 0.537661
0.481419 0.694819 0.543019
0.671576 0.700176 0.548376
0.861734 0.705534 0.553734
0.119770 0.894170 0.550970
0.309928 0.899528 0.556328
0.500086 0.904886 0.561686
0.690243 0.910243 0.567043
0.880401 0.915601 0.572401
0.047096 0.055896 0.680696
0.237254 0.061254 0.686054
0.427411 0.066611 0.691411
0.617569 0.071969 0.696769
0.807726 0.077326 0.702126
0.065763 0.265963 0.699363
0.255921 0.271321 0.704721
0.446078 0.276678 0.710078
0.636236 0.282036 0.715436
0.826393 0.287393 0.720793
0.084430 0.476030 0.718030
0.274587 0.481387 0.723387
0.464745 0.486745 0.728745
0.654902 0.492102 0.734102
0.845060 0.497460 0.739460
0.103096 0.686096 0.736696
0.293254 0.691454 0.742054
0.483412 0.696812 0.747412
0.673569 0.702169 0.752769
0.863727 0.707527 0.758127
0.121763 0.896163 0.755363
0.311921 0.901521 0.760721
0.502078 0.906878 0.766078
0.692236 0.912236 0.771436
0.882393 0.917593 0.776793
0.049089 0.057889 0.885089
0.239247 0.063247 0.890447
0.429404 0.068604 0.895804
0.619562 0.073962 0.901162
0.809719 0.079319 0.906519
0.067756 0.267956 0.903756
0.257913 0.273313 0.909113
0.448071 0.278671 0.914471
0.638228 0.284028 0.919828
0.828386 0.289386 0.925186
0.086422 0.478022 0.922422
0.276580 0.483380 0.927780
0.466738 0.488738 0.933138
0.656895 0.494095 0.938495
0.847053 0.499453 0.943853
0.105089 0.688089 0.941089
0.295247 0.693447 0.946447
0.485404 0.698804 0.951804
0.675562 0.704162 0.957162
0.865719 0.709519 0.962519
0.123756 0.898156 0.959756
0.313913 0.903513 0.965113
0.504071 0.908871 0.970471
0.694228 0.914228 0.975828
0.884386 0.919586 0.981186
