assets/luts/cool_mist.cube
TITLE "Cool Mist"
LUT_3D_SIZE 17
0.041118 0.049918 0.067518
0.088658 0.051258 0.068858
0.136197 0.052597 0.070197
0.183736 0.053936 0.071536
0.231276 0.055276 0.072876
0.278815 0.056615 0.074215
0.326354 0.057954 0.075554
0.373894 0.059294 0.076894
0.421433 0.060633 0.078233
0.468973 0.061973 0.079573
0.516512 0.063312 0.080912
0.564051 0.064651 0.082251
0.611591 0.065991 0.083591
0.659130 0.067330 0.084930
0.706669 0.068669 0.086269
0.754209 0.070009 0.087609
0.801748 0.071348 0.088948
0.045785 0.102435 0.072185
0.093324 0.103774 0.073524
0.140864 0.105114 0.074864
0.188403 0.106453 0.076203
0.235942 0.107792 0.077542
0.283482 0.109132 0.078882
0.331021 0.110471 0.080221
0.378560 0.111810 0.081561
0.426100 0.113150 0.082900
0.473639 0.114489 0.084239
0.521179 0.115829 0.085579
0.568718 0.117168 0.086918
0.616257 0.118507 0.088257
0.663797 0.119847 0.089597
0.711336 0.121186 0.090936
0.758876 0.122526 0.092276
0.806415 0.123865 0.093615
0.050452 0.154952 0.076852
0.097991 0.156291 0.078191
0.145530 0.157630 0.079530
0.193070 0.158970 0.080870
0.240609 0.160309 0.082209
0.288148 0.161648 0.083548
0.335688 0.162988 0.084888
0.383227 0.164327 0.086227
0.430767 0.165667 0.087567
0.478306 0.167006 0.088906
0.525845 0.168345 0.090245
0.573385 0.169685 0.091585
0.620924 0.171024 0.092924
0.668463 0.172363 0.094263
0.716003 0.173703 0.095603
0.763542 0.175042 0.096942
0.811082 0.176382 0.098282
0.055118 0.207468 0.081518
0.102658 0.208808 0.082858
0.150197 0.210147 0.084197
0.197736 0.211486 0.085536
0.245276 0.212826 0.086876
0.292815 0.214165 0.088215
0.340354 0.215504 0.089554
0.387894 0.216844 0.090894
0.435433 0.218183 0.092233
0.482973 0.219523 0.093573
0.530512 0.220862 0.094912
0.578051 0.222201 0.096251
0.625591 0.223541 0.097591
0.673130 0.224880 0.098930
0.720670 0.226220 0.100270
0.768209 0.227559 0.101609
0.815748 0.228898 0.102948
0.059785 0.259985 0.086185
0.107324 0.261324 0.087524
0.154864 0.262664 0.088864
0.202403 0.264003 0.090203
0.249942 0.265342 0.091542
0.297482 0.266682 0.092882
0.345021 0.268021 0.094221
0.392561 0.269361 0.095561
0.440100 0.270700 0.096900
0.487639 0.272039 0.098239
0.535179 0.273379 0.099579
0.582718 0.274718 0.100918
0.630257 0.276057 0.102257
0.677797 0.277397 0.103597
0.725336 0.278736 0.104936
0.772876 0.280076 0.106276
0.820415 0.281415 0.107615
0.064452 0.312502 0.090852
0.111991 0.313841 0.092191
0.159530 0.315180 0.093530
0.207070 0.316520 0.094870
0.254609 0.317859 0.096209
0.302148 0.319198 0.097548
0.349688 0.320538 0.098888
0.397227 0.321877 0.100227
0.444767 0.323217 0.101567
0.492306 0.324556 0.102906
0.539845 0.325895 0.104245
0.587385 0.327235 0.105585
0.634924 0.328574 0.106924
0.682464 0.329913 0.108264
0.730003 0.331253 0.109603
0.777542 0.332592 0.110942
0.825082 0.333932 0.112282
0.069118 0.365018 0.095518
0.116658 0.366358 0.096858
0.164197 0.367697 0.098197
0.211736 0.369036 0.099536
0.259276 0.370376 0.100876
0.306815 0.371715 0.102215
0.354355 0.373055 0.103555
0.401894 0.374394 0.104894
0.449433 0.375733 0.106233
0.496973 0.377073 0.107573
0.544512 0.378412 0.108912
0.592051 0.379751 0.110251
0.639591 0.381091 0.111591
0.687130 0.382430 0.112930
0.734670 0.383770 0.114270
0.782209 0.385109 0.115609
0.829748 0.386448 0.116948
0.073785 0.417535 0.100185
0.121324 0.418874 0.101524
0.168864 0.420214 0.102864
0.216403 0.421553 0.104203
0.263942 0.422892 0.105542
0.311482 0.424232 0.106882
0.359021 0.425571 0.108221
0.406561 0.426911 0.109561
0.454100 0.428250 0.110900
0.501639 0.429589 0.112239
0.549179 0.430929 0.113579
0.596718 0.432268 0.114918
0.644257 0.433607 0.116257
0.691797 0.434947 0.117597
0.739336 0.436286 0.118936
0.786876 0.437626 0.120276
0.834415 0.438965 0.121615
0.078452 0.470052 0.104852
0.125991 0.471391 0.106191
0.173530 0.472730 0.107530
0.221070 0.474070 0.108870
0.268609 0.475409 0.110209
0.316148 0.476748 0.111548
0.363688 0.478088 0.112888
0.411227 0.479427 0.114227
0.458767 0.480767 0.115567
0.506306 0.482106 0.116906
0.553845 0.483445 0.118245
0.601385 0.484785 0.119585
0.648924 0.486124 0.120924
0.696464 0.487464 0.122264
0.744003 0.488803 0.123603
0.791542 0.490142 0.124942
0.839082 0.491482 0.126282
0.083118 0.522568 0.109518
0.130658 0.523908 0.110858
0.178197 0.525247 0.112197
0.225736 0.526586 0.113536
0.273276 0.527926 0.114876
0.320815 0.529265 0.116215
0.368355 0.530605 0.117555
0.415894 0.531944 0.118894
0.463433 0.533283 0.120233
0.510973 0.534623 0.121573
0.558512 0.535962 0.122912
0.606051 0.537301 0.124251
0.653591 0.538641 0.125591
0.701130 0.539980 0.126930
0.748670 0.541320 0.128270
0.796209 0.542659 0.129609
0.843748 0.543998 0.130948
0.087785 0.575085 0.114185
0.135324 0.576424 0.115524
0.182864 0.577764 0.116864
0.230403 0.579103 0.118203
0.277942 0.580442 0.119542
0.325482 0.581782 0.120882
0.373021 0.583121 0.122221
0.420561 0.584461 0.123561
0.468100 0.585800 0.124900
0.515639 0.587139 0.126239
0.563179 0.588479 0.127579
0.610718 0.589818 0.128918
0.658258 0.591158 0.130258
0.705797 0.592497 0.131597
0.753336 0.593836 0.132936
0.800876 0.595176 0.134276
0.848415 0.596515 0.135615
0.092452 0.627602 0.118852
0.139991 0.628941 0.120191
0.187530 0.630280 0.121530
0.235070 0.631620 0.122870
0.282609 0.632959 0.124209
0.330149 0.634299 0.125549
0.377688 0.635638 0.126888
0.425227 0.636977 0.128227
0.472767 0.638317 0.129567
0.520306 0.639656 0.130906
0.567845 0.640995 0.132245
0.615385 0.642335 0.133585
0.662924 0.643674 0.134924
0.710464 0.645014 0.136264
0.758003 0.646353 0.137603
0.805542 0.647692 0.138942
0.853082 0.649032 0.140282
0.097118 0.680118 0.123518
0.144658 0.681458 0.124858
0.192197 0.682797 0.126197
0.239736 0.684136 0.127536
0.287276 0.685476 0.128876
0.334815 0.686815 0.130215
0.382355 0.688155 0.131555
0.429894 0.689494 0.132894
0.477433 0.690833 0.134233
0.524973 0.692173 0.135573
0.572512 0.693512 0.136912
0.620052 0.694851 0.138251
0.667591 0.696191 0.139591
0.715130 0.697530 0.140930
0.762670 0.698870 0.142270
0.810209 0.700209 0.143609
0.857748 0.701548 0.144948
0.101785 0.732635 0.128185
0.149324 0.733974 0.129524
0.196864 0.735314 0.130864
0.244403 0.736653 0.132203
0.291943 0.737993 0.133543
0.339482 0.739332 0.134882
0.387021 0.740671 0.136221
0.434561 0.742011 0.137561
0.482100 0.743350 0.138900
0.529639 0.744689 0.140239
0.577179 0.746029 0.141579
0.624718 0.747368 0.142918
0.672258 0.748708 0.144258
0.719797 0.750047 0.145597
0.767336 0.751386 0.146936
0.814876 0.752726 0.148276
0.862415 0.754065 0.149615
0.106452 0.785152 0.132852
0.153991 0.786491 0.134191
0.201530 0.787830 0.135530
0.249070 0.789170 0.136870
0.296609 0.790509 0.138209
0.344149 0.791849 0.139549
0.391688 0.793188 0.140888
0.439227 0.794527 0.142227
0.486767 0.795867 0.143567
0.534306 0.797206 0.144906
0.581845 0.798545 0.146245
0.629385 0.799885 0.147585
0.676924 0.801224 0.148924
0.724464 0.802564 0.150264
0.772003 0.803903 0.151603
0.819542 0.805242 0.152942
0.867082 0.806582 0.154282
0.111118 0.837668 0.137518
0.158658 0.839008 0.138858
0.206197 0.840347 0.140197
0.253737 0.841687 0.141537
0.301276 0.843026 0.142876
0.348815 0.844365 0.144215
0.396355 0.845705 0.145555
0.443894 0.847044 0.146894
0.491433 0.848383 0.148233
0.538973 0.849723 0.149573
0.586512 0.851062 0.150912
0.634052 0.852402 0.152252
0.681591 0.853741 0.153591
0.729130 0.855080 0.154930
0.776670 0.856420 0.156270
0.824209 0.857759 0.157609
0.871748 0.859098 0.158948
0.115785 0.890185 0.142185
0.163324 0.891524 0.143524
0.210864 0.892864 0.144864
0.258403 0.894203 0.146203
0.305943 0.895543 0.147543
0.353482 0.896882 0.148882
0.401021 0.898221 0.150221
0.448561 0.899561 0.151561
0.496100 0.900900 0.152900
0.543639 0.902239 0.154239
0.591179 0.903579 0.155579
0.638718 0.904918 0.156918
0.686258 0.906258 0.158258
0.733797 0.907597 0.159597
0.781336 0.908936 0.160936
0.828876 0.910276 0.162276
0.876415 0.911615 0.163615
0.041616 0.050416 0.118616
0.089156 0.051756 0.119956
0.136695 0.053095 0.121295
0.184234 0.054434 0.122634
0.231774 0.055774 0.123974
0.279313 0.057113 0.125313
0.326853 0.058453 0.126653
0.374392 0.059792 0.127992
0.421931 0.061131 0.129331
0.469471 0.062471 0.130671
0.517010 0.063810 0.132010
0.564550 0.065150 0.133350
0.612089 0.066489 0.134689
0.659628 0.067828 0.136028
0.707168 0.069168 0.137368
0.754707 0.070507 0.138707
0.802246 0.071846 0.140046
0.046283 0.102933 0.123283
0.093822 0.104272 0.124622
0.141362 0.105612 0.125962
0.188901 0.106951 0.127301
0.236441 0.108291 0.128641
0.283980 0.109630 0.129980
0.331519 0.110969 0.131319
0.379059 0.112309 0.132659
0.426598 0.113648 0.133998
0.474137 0.114987 0.135337
0.521677 0.116327 0.136677
0.569216 0.117666 0.138016
0.616756 0.119006 0.139356
0.664295 0.120345 0.140695
0.711834 0.121684 0.142034
0.759374 0.123024 0.143374
0.806913 0.124363 0.144713
0.050950 0.155450 0.127950
0.098489 0.156789 0.129289
0.146028 0.158128 0.130628
0.193568 0.159468 0.131968
0.241107 0.160807 0.133307
0.288647 0.162147 0.134647
0.336186 0.163486 0.135986
0.383725 0.164825 0.137325
0.431265 0.166165 0.138665
0.478804 0.167504 0.140004
0.526344 0.168844 0.141344
0.573883 0.170183 0.142683
0.621422 0.171522 0.144022
0.668962 0.172862 0.145362
0.716501 0.174201 0.146701
0.764040 0.175540 0.148040
0.811580 0.176880 0.149380
0.055616 0.207966 0.132616
0.103156 0.209306 0.133956
0.150695 0.210645 0.135295
0.198235 0.211985 0.136635
0.245774 0.213324 0.137974
0.293313 0.214663 0.139313
0.340853 0.216003 0.140653
0.388392 0.217342 0.141992
0.435931 0.218681 0.143331
0.483471 0.220021 0.144671
0.531010 0.221360 0.146010
0.578550 0.222700 0.147350
0.626089 0.224039 0.148689
0.673628 0.225378 0.150028
0.721168 0.226718 0.151368
0.768707 0.228057 0.152707
0.816246 0.229396 0.154046
0.060283 0.260483 0.137283
0.107822 0.261822 0.138622
0.155362 0.263162 0.139962
0.202901 0.264501 0.141301
0.250441 0.265841 0.142641
0.297980 0.267180 0.143980
0.345519 0.268519 0.145319
0.393059 0.269859 0.146659
0.440598 0.271198 0.147998
0.488137 0.272537 0.149337
0.535677 0.273877 0.150677
0.583216 0.275216 0.152016
0.630756 0.276556 0.153356
0.678295 0.277895 0.154695
0.725834 0.279234 0.156034
0.773374 0.280574 0.157374
0.820913 0.281913 0.158713
0.064950 0.313000 0.141950
0.112489 0.314339 0.143289
0.160028 0.315678 0.144628
0.207568 0.317018 0.145968
0.255107 0.318357 0.147307
0.302647 0.319697 0.148647
0.350186 0.321036 0.149986
0.397725 0.322375 0.151325
0.445265 0.323715 0.152665
0.492804 0.325054 0.154004
0.540344 0.326394 0.155344
0.587883 0.327733 0.156683
0.635422 0.329072 0.158022
0.682962 0.330412 0.159362
0.730501 0.331751 0.160701
0.778040 0.333090 0.162040
0.825580 0.334430 0.163380
0.069616 0.365516 0.146616
0.117156 0.366856 0.147956
0.164695 0.368195 0.149295
0.212235 0.369535 0.150635
0.259774 0.370874 0.151974
0.307313 0.372213 0.153313
0.354853 0.373553 0.154653
0.402392 0.374892 0.155992
0.449931 0.376231 0.157331
0.497471 0.377571 0.158671
0.545010 0.378910 0.160010
0.592550 0.380250 0.161350
0.640089 0.381589 0.162689
0.687628 0.382928 0.164028
0.735168 0.384268 0.165368
0.782707 0.385607 0.166707
0.830246 0.386946 0.168046
0.074283 0.418033 0.151283
0.121822 0.419372 0.152622
0.169362 0.420712 0.153962
0.216901 0.422051 0.155301
0.264441 0.423391 0.156641
0.311980 0.424730 0.157980
0.359519 0.426069 0.159319
0.407059 0.427409 0.160659
0.454598 0.428748 0.161998
0.502138 0.430088 0.163338
0.549677 0.431427 0.164677
0.597216 0.432766 0.166016
0.644756 0.434106 0.167356
0.692295 0.435445 0.168695
0.739834 0.436784 0.170034
0.787374 0.438124 0.171374
0.834913 0.439463 0.172713
0.078950 0.470550 0.155950
0.126489 0.471889 0.157289
0.174029 0.473229 0.158629
0.221568 0.474568 0.159968
0.269107 0.475907 0.161307
0.316647 0.477247 0.162647
0.364186 0.478586 0.163986
0.411725 0.479925 0.165325
0.459265 0.481265 0.166665
0.506804 0.482604 0.168004
0.554344 0.483944 0.169344
0.601883 0.485283 0.170683
0.649422 0.486622 0.172022
0.696962 0.487962 0.173362
0.744501 0.489301 0.174701
0.792040 0.490640 0.176040
0.839580 0.491980 0.177380
0.083616 0.523066 0.160616
0.131156 0.524406 0.161956
0.178695 0.525745 0.163295
0.226235 0.527085 0.164635
0.273774 0.528424 0.165974
0.321313 0.529763 0.167313
0.368853 0.531103 0.168653
0.416392 0.532442 0.169992
0.463931 0.533782 0.171332
0.511471 0.535121 0.172671
0.559010 0.536460 0.174010
0.606550 0.537800 0.175350
0.654089 0.539139 0.176689
0.701628 0.540478 0.178028
0.749168 0.541818 0.179368
0.796707 0.543157 0.180707
0.844247 0.544497 0.182047
0.088283 0.575583 0.165283
0.135823 0.576923 0.166623
0.183362 0.578262 0.167962
0.230901 0.579601 0.169301
0.278441 0.580941 0.170641
0.325980 0.582280 0.171980
0.373519 0.583619 0.173319
0.421059 0.584959 0.174659
0.468598 0.586298 0.175998
0.516138 0.587638 0.177338
0.563677 0.588977 0.178677
0.611216 0.590316 0.180016
0.658756 0.591656 0.181356
0.706295 0.592995 0.182695
0.753834 0.594334 0.184034
0.801374 0.595674 0.185374
0.848913 0.597013 0.186713
0.092950 0.628100 0.169950
0.140489 0.629439 0.171289
0.188029 0.630779 0.172629
0.235568 0.632118 0.173968
0.283107 0.633457 0.175307
0.330647 0.634797 0.176647
0.378186 0.636136 0.177986
0.425725 0.637475 0.179325
0.473265 0.638815 0.180665
0.520804 0.640154 0.182004
0.568344 0.641494 0.183344
0.615883 0.642833 0.184683
0.663422 0.644172 0.186022
0.710962 0.645512 0.187362
0.758501 0.646851 0.188701
0.806041 0.648191 0.190041
0.853580 0.649530 0.191380
0.097616 0.680616 0.174617
0.145156 0.681956 0.175956
0.192695 0.683295 0.177295
0.240235 0.684635 0.178635
0.287774 0.685974 0.179974
0.335313 0.687313 0.181313
0.382853 0.688653 0.182653
0.430392 0.689992 0.183992
0.477932 0.691332 0.185332
0.525471 0.692671 0.186671
0.573010 0.694010 0.188010
0.620550 0.695350 0.189350
0.668089 0.696689 0.190689
0.715628 0.698028 0.192028
0.763168 0.699368 0.193368
0.810707 0.700707 0.194707
0.858247 0.702047 0.196047
0.102283 0.733133 0.179283
0.149823 0.734473 0.180623
0.197362 0.735812 0.181962
0.244901 0.737151 0.183301
0.292441 0.738491 0.184641
0.339980 0.739830 0.185980
0.387519 0.741169 0.187319
0.435059 0.742509 0.188659
0.482598 0.743848 0.189998
0.530138 0.745188 0.191338
0.577677 0.746527 0.192677
0.625216 0.747866 0.194016
0.672756 0.749206 0.195356
0.720295 0.750545 0.196695
0.767834 0.751885 0.198035
0.815374 0.753224 0.199374
0.862913 0.754563 0.200713
0.106950 0.785650 0.183950
0.154489 0.786989 0.185289
0.202029 0.788329 0.186629
0.249568 0.789668 0.187968
0.297107 0.791007 0.189307
0.344647 0.792347 0.190647
0.392186 0.793686 0.191986
0.439726 0.795026 0.193326
0.487265 0.796365 0.194665
0.534804 0.797704 0.196004
0.582344 0.799044 0.197344
0.629883 0.800383 0.198683
0.677422 0.801722 0.200022
0.724962 0.803062 0.201362
0.772501 0.804401 0.202701
0.820041 0.805741 0.204041
0.867580 0.807080 0.205380
0.111617 0.838167 0.188617
0.159156 0.839506 0.189956
0.206695 0.840845 0.191295
0.254235 0.842185 0.192635
0.301774 0.843524 0.193974
0.349313 0.844863 0.195313
0.396853 0.846203 0.196653
0.444392 0.847542 0.197992
0.491932 0.848882 0.199332
0.539471 0.850221 0.200671
0.587010 0.851560 0.202010
0.634550 0.852900 0.203350
0.682089 0.854239 0.204689
0.729628 0.855578 0.206028
0.777168 0.856918 0.207368
0.824707 0.858257 0.208707
0.872247 0.859597 0.210047
0.116283 0.890683 0.193283
0.163823 0.892023 0.194623
0.211362 0.893362 0.195962
0.258901 0.894701 0.197301
0.306441 0.896041 0.198641
0.353980 0.897380 0.199980
0.401519 0.898720 0.201319
0.449059 0.900059 0.202659
0.496598 0.901398 0.203998
0.544138 0.902738 0.205338
0.591677 0.904077 0.206677
0.639216 0.905416 0.208016
0.686756 0.906756 0.209356
0.734295 0.908095 0.210695
0.781835 0.909435 0.212035
0.829374 0.910774 0.213374
0.876913 0.912113 0.214713
0.042115 0.050915 0.169715
0.089654 0.052254 0.171054
0.137193 0.053593 0.172393
0.184733 0.054933 0.173733
0.232272 0.056272 0.175072
0.279811 0.057611 0.176411
0.327351 0.058951 0.177751
0.374890 0.060290 0.179090
0.422430 0.061630 0.180430
0.469969 0.062969 0.181769
0.517508 0.064308 0.183108
0.565048 0.065648 0.184448
0.612587 0.066987 0.185787
0.660126 0.068326 0.187126
0.707666 0.069666 0.188466
0.755205 0.071005 0.189805
0.802745 0.072345 0.191145
0.046781 0.103431 0.174381
0.094321 0.104771 0.175721
0.141860 0.106110 0.177060
0.189399 0.107449 0.178399
0.236939 0.108789 0.179739
0.284478 0.110128 0.181078
0.332017 0.111467 0.182417
0.379557 0.112807 0.183757
0.427096 0.114146 0.185096
0.474636 0.115486 0.186436
0.522175 0.116825 0.187775
0.569714 0.118164 0.189114
0.617254 0.119504 0.190454
0.664793 0.120843 0.191793
0.712333 0.122183 0.193133
0.759872 0.123522 0.194472
0.807411 0.124861 0.195811
0.051448 0.155948 0.179048
0.098987 0.157287 0.180387
0.146527 0.158627 0.181727
0.194066 0.159966 0.183066
0.241605 0.161305 0.184405
0.289145 0.162645 0.185745
0.336684 0.163984 0.187084
0.384224 0.165324 0.188424
0.431763 0.166663 0.189763
0.479302 0.168002 0.191102
0.526842 0.169342 0.192442
0.574381 0.170681 0.193781
0.621920 0.172020 0.195120
0.669460 0.173360 0.196460
0.716999 0.174699 0.197799
0.764539 0.176039 0.199139
0.812078 0.177378 0.200478
0.056115 0.208465 0.183715
0.103654 0.209804 0.185054
0.151193 0.211143 0.186393
0.198733 0.212483 0.187733
0.246272 0.213822 0.189072
0.293811 0.215161 0.190411
0.341351 0.216501 0.191751
0.388890 0.217840 0.193090
0.436430 0.219180 0.194430
0.483969 0.220519 0.195769
0.531508 0.221858 0.197108
0.579048 0.223198 0.198448
0.626587 0.224537 0.199787
0.674127 0.225877 0.201126
0.721666 0.227216 0.202466
0.769205 0.228555 0.203805
0.816745 0.229895 0.205145
0.060781 0.260981 0.188381
0.108321 0.262321 0.189721
0.155860 0.263660 0.191060
0.203399 0.264999 0.192399
0.250939 0.266339 0.193739
0.298478 0.267678 0.195078
0.346018 0.269018 0.196418
0.393557 0.270357 0.197757
0.441096 0.271696 0.199096
0.488636 0.273036 0.200436
0.536175 0.274375 0.201775
0.583714 0.275714 0.203114
0.631254 0.277054 0.204454
0.678793 0.278393 0.205793
0.726333 0.279733 0.207133
0.773872 0.281072 0.208472
0.821411 0.282411 0.209811
0.065448 0.313498 0.193048
0.112987 0.314837 0.194387
0.160527 0.316177 0.195727
0.208066 0.317516 0.197066
0.255605 0.318855 0.198405
0.303145 0.320195 0.199745
0.350684 0.321534 0.201084
0.398224 0.322874 0.202424
0.445763 0.324213 0.203763
0.493302 0.325552 0.205102
0.540842 0.326892 0.206442
0.588381 0.328231 0.207781
0.635920 0.329570 0.209120
0.683460 0.330910 0.210460
0.730999 0.332249 0.211799
0.778539 0.333589 0.213139
0.826078 0.334928 0.214478
0.070115 0.366015 0.197715
0.117654 0.367354 0.199054
0.165193 0.368693 0.200393
0.212733 0.370033 0.201733
0.260272 0.371372 0.203072
0.307812 0.372711 0.204411
0.355351 0.374051 0.205751
0.402890 0.375390 0.207090
0.450430 0.376730 0.208430
0.497969 0.378069 0.209769
0.545508 0.379408 0.211108
0.593048 0.380748 0.212448
0.640587 0.382087 0.213787
0.688127 0.383427 0.215127
0.735666 0.384766 0.216466
0.783205 0.386105 0.217805
0.830745 0.387445 0.219145
0.074781 0.418531 0.202381
0.122321 0.419871 0.203721
0.169860 0.421210 0.205060
0.217399 0.422549 0.206399
0.264939 0.423889 0.207739
0.312478 0.425228 0.209078
0.360018 0.426568 0.210418
0.407557 0.427907 0.211757
0.455096 0.429246 0.213096
0.502636 0.430586 0.214436
0.550175 0.431925 0.215775
0.597714 0.433264 0.217114
0.645254 0.434604 0.218454
0.692793 0.435943 0.219793
0.740333 0.437283 0.221133
0.787872 0.438622 0.222472
0.835411 0.439961 0.223811
0.079448 0.471048 0.207048
0.126987 0.472387 0.208387
0.174527 0.473727 0.209727
0.222066 0.475066 0.211066
0.269605 0.476405 0.212405
0.317145 0.477745 0.213745
0.364684 0.479084 0.215084
0.412224 0.480424 0.216424
0.459763 0.481763 0.217763
0.507302 0.483102 0.219102
0.554842 0.484442 0.220442
0.602381 0.485781 0.221781
0.649921 0.487121 0.223121
0.697460 0.488460 0.224460
0.744999 0.489799 0.225799
0.792539 0.491139 0.227139
0.840078 0.492478 0.228478
0.084115 0.523565 0.211715
0.131654 0.524904 0.213054
0.179193 0.526243 0.214393
0.226733 0.527583 0.215733
0.274272 0.528922 0.217072
0.321812 0.530262 0.218412
0.369351 0.531601 0.219751
0.416890 0.532940 0.221090
0.464430 0.534280 0.222430
0.511969 0.535619 0.223769
0.559508 0.536958 0.225108
0.607048 0.538298 0.226448
0.654587 0.539637 0.227787
0.702127 0.540977 0.229127
0.749666 0.542316 0.230466
0.797205 0.543655 0.231805
0.844745 0.544995 0.233145
0.088781 0.576081 0.216381
0.136321 0.577421 0.217721
0.183860 0.578760 0.219060
0.231399 0.580099 0.220399
0.278939 0.581439 0.221739
0.326478 0.582778 0.223078
0.374018 0.584118 0.224418
0.421557 0.585457 0.225757
0.469096 0.586796 0.227096
0.516636 0.588136 0.228436
0.564175 0.589475 0.229775
0.611715 0.590815 0.231115
0.659254 0.592154 0.232454
0.706793 0.593493 0.233793
0.754333 0.594833 0.235133
0.801872 0.596172 0.236472
0.849411 0.597511 0.237811
0.093448 0.628598 0.221048
0.140987 0.629937 0.222387
0.188527 0.631277 0.223727
0.236066 0.632616 0.225066
0.283606 0.633956 0.226406
0.331145 0.635295 0.227745
0.378684 0.636634 0.229084
0.426224 0.637974 0.230424
0.473763 0.639313 0.231763
0.521302 0.640652 0.233102
0.568842 0.641992 0.234442
0.616381 0.643331 0.235781
0.663921 0.644671 0.237121
0.711460 0.646010 0.238460
0.758999 0.647349 0.239799
0.806539 0.648689 0.241139
0.854078 0.650028 0.242478
0.098115 0.681115 0.225715
0.145654 0.682454 0.227054
0.193193 0.683793 0.228393
0.240733 0.685133 0.229733
0.288272 0.686472 0.231072
0.335812 0.687812 0.232412
0.383351 0.689151 0.233751
0.430890 0.690490 0.235090
0.478430 0.691830 0.236430
0.525969 0.693169 0.237769
0.573508 0.694508 0.239108
0.621048 0.695848 0.240448
0.668587 0.697187 0.241787
0.716127 0.698527 0.243127
0.763666 0.699866 0.244466
0.811205 0.701205 0.245805
0.858745 0.702545 0.247145
0.102781 0.733631 0.230381
0.150321 0.734971 0.231721
0.197860 0.736310 0.233060
0.245399 0.737650 0.234399
0.292939 0.738989 0.235739
0.340478 0.740328 0.237078
0.388018 0.741668 0.238418
0.435557 0.743007 0.239757
0.483096 0.744346 0.241096
0.530636 0.745686 0.242436
0.578175 0.747025 0.243775
0.625715 0.748365 0.245115
0.673254 0.749704 0.246454
0.720793 0.751043 0.247793
0.768333 0.752383 0.249133
0.815872 0.753722 0.250472
0.863411 0.755061 0.251811
0.107448 0.786148 0.235048
0.154987 0.787487 0.236387
0.202527 0.788827 0.237727
0.250066 0.790166 0.239066
0.297606 0.791506 0.240406
0.345145 0.792845 0.241745
0.392684 0.794184 0.243084
0.440224 0.795524 0.244424
0.487763 0.796863 0.245763
0.535302 0.798202 0.247102
0.582842 0.799542 0.248442
0.630381 0.800881 0.249781
0.677921 0.802221 0.251121
0.725460 0.803560 0.252460
0.772999 0.804899 0.253799
0.820539 0.806239 0.255139
0.868078 0.807578 0.256478
0.112115 0.838665 0.239715
0.159654 0.840004 0.241054
0.207193 0.841343 0.242393
0.254733 0.842683 0.243733
0.302272 0.844022 0.245072
0.349812 0.845362 0.246412
0.397351 0.846701 0.247751
0.444890 0.848040 0.249090
0.492430 0.849380 0.250430
0.539969 0.850719 0.251769
0.587509 0.852059 0.253109
0.635048 0.853398 0.254448
0.682587 0.854737 0.255787
0.730127 0.856077 0.257127
0.777666 0.857416 0.258466
0.825205 0.858755 0.259805
0.872745 0.860095 0.261145
0.116781 0.891181 0.244381
0.164321 0.892521 0.245721
0.211860 0.893860 0.247060
0.259400 0.895200 0.248400
0.306939 0.896539 0.249739
0.354478 0.897878 0.251078
0.402018 0.899218 0.252418
0.449557 0.900557 0.253757
0.497096 0.901896 0.255096
0.544636 0.903236 0.256436
0.592175 0.904575 0.257775
0.639715 0.905915 0.259115
0.687254 0.907254 0.260454
0.734793 0.908593 0.261793
0.782333 0.909933 0.263133
0.829872 0.911272 0.264472
0.877411 0.912611 0.265811
0.042613 0.051413 0.220813
0.090152 0.052752 0.222152
0.137691 0.054091 0.223491
0.185231 0.055431 0.224831
0.232770 0.056770 0.226170
0.280310 0.058110 0.227510
0.327849 0.059449 0.228849
0.375388 0.060788 0.230188
0.422928 0.062128 0.231528
0.470467 0.063467 0.232867
0.518007 0.064807 0.234207
0.565546 0.066146 0.235546
0.613085 0.067485 0.236885
0.660625 0.068825 0.238225
0.708164 0.070164 0.239564
0.755703 0.071503 0.240903
0.803243 0.072843 0.242243
0.047279 0.103929 0.225479
0.094819 0.105269 0.226819
0.142358 0.106608 0.228158
