assets/luts/noir.cube
TITLE "Noir"
LUT_3D_SIZE 17
0.000000 0.000000 0.000000
0.000525 0.000525 0.000525
0.002081 0.002081 0.002081
0.004641 0.004640 0.004640
0.008178 0.008174 0.008172
0.012663 0.012655 0.012649
0.018071 0.018055 0.018042
0.024374 0.024345 0.024321
0.031546 0.031497 0.031457
0.039561 0.039483 0.039421
0.048392 0.048275 0.048182
0.058013 0.057845 0.057712
0.068397 0.068165 0.067979
0.079520 0.079206 0.078955
0.091355 0.090941 0.090610
0.103875 0.103341 0.102914
0.117055 0.116378 0.115836
0.005817 0.005816 0.005814
0.009702 0.009698 0.009694
0.014527 0.014516 0.014508
0.020264 0.020243 0.020227
0.026886 0.026850 0.026821
0.034368 0.034309 0.034262
0.042683 0.042592 0.042520
0.051804 0.051671 0.051564
0.061706 0.061517 0.061366
0.072363 0.072103 0.071895
0.083748 0.083400 0.083122
0.095835 0.095380 0.095016
0.108598 0.108015 0.107548
0.122012 0.121277 0.120688
0.136050 0.135137 0.134407
0.150687 0.149568 0.148673
0.165895 0.164542 0.163459
0.022573 0.022548 0.022528
0.029512 0.029469 0.029434
0.037300 0.037231 0.037175
0.045912 0.045807 0.045723
0.055320 0.055168 0.055046
0.065500 0.065287 0.065116
0.076425 0.076135 0.075903
0.088068 0.087684 0.087376
0.100404 0.099905 0.099506
0.113408 0.112772 0.112263
0.127052 0.126255 0.125617
0.141311 0.140326 0.139539
0.156159 0.154958 0.153998
0.171569 0.170122 0.168964
0.187516 0.185790 0.184409
0.203972 0.201934 0.200302
0.220912 0.218525 0.216615
0.049246 0.049125 0.049029
0.058938 0.058766 0.058628
0.069392 0.069153 0.068962
0.080582 0.080260 0.080002
0.092480 0.092057 0.091718
0.105063 0.104517 0.104080
0.118302 0.117611 0.117057
0.132173 0.131311 0.130622
0.146650 0.145590 0.144742
0.161705 0.160419 0.159389
0.177314 0.175769 0.174534
0.193449 0.191614 0.190145
0.210085 0.207923 0.206194
0.227195 0.224671 0.222652
0.244751 0.241827 0.239488
0.262728 0.259365 0.256674
0.281099 0.277255 0.274181
0.084833 0.084476 0.084191
0.096983 0.096518 0.096145
0.109808 0.109212 0.108735
0.123281 0.122530 0.121929
0.137375 0.136444 0.135700
0.152065 0.150926 0.150015
0.167325 0.165948 0.164847
0.183129 0.181482 0.180165
0.199449 0.197499 0.195939
0.216261 0.213971 0.212140
0.233536 0.230871 0.228739
0.251249 0.248169 0.245706
0.269372 0.265839 0.263012
0.287879 0.283851 0.280628
0.306743 0.302177 0.298525
0.325936 0.320790 0.316674
0.345430 0.339662 0.335047
0.128341 0.127528 0.126878
0.142656 0.141652 0.140850
0.157556 0.156334 0.155357
0.173017 0.171546 0.170369
0.189012 0.187259 0.185856
0.205514 0.203445 0.201789
0.222498 0.220076 0.218139
0.239935 0.237124 0.234875
0.257801 0.254561 0.251969
0.276067 0.272358 0.269391
0.294707 0.290488 0.287113
0.313694 0.308922 0.305105
0.332999 0.327632 0.323339
0.352597 0.346591 0.341786
0.372458 0.365769 0.360417
0.392555 0.385139 0.379205
0.412860 0.404672 0.398121
0.178780 0.177210 0.175954
0.194963 0.193098 0.191607
0.211643 0.209450 0.207695
0.228795 0.226236 0.224188
0.246391 0.243429 0.241058
0.264406 0.261000 0.258275
0.282811 0.278922 0.275810
0.301581 0.297165 0.293633
0.320687 0.315703 0.311717
0.340102 0.334507 0.330031
0.359799 0.353549 0.348549
0.379749 0.372800 0.367241
0.399925 0.392232 0.386079
0.420298 0.411818 0.405035
0.440840 0.431529 0.424081
0.461523 0.451337 0.443189
0.482316 0.471214 0.462332
0.235151 0.232449 0.230288
0.252903 0.249783 0.247288
0.271063 0.267485 0.264623
0.289604 0.285528 0.282267
0.308499 0.303882 0.300188
0.327721 0.322520 0.318359
0.347242 0.341413 0.336751
0.367034 0.360535 0.355335
0.387070 0.379855 0.374083
0.407321 0.399347 0.392968
0.427759 0.418981 0.411960
0.448355 0.438731 0.431032
0.469081 0.458567 0.450156
0.489908 0.478462 0.469305
0.510807 0.498388 0.488452
0.531748 0.518315 0.507569
0.552701 0.538217 0.526630
0.296443 0.292175 0.288760
0.315461 0.310636 0.306776
0.334794 0.329370 0.325031
0.354417 0.348350 0.343496
0.374301 0.367547 0.362143
0.394419 0.386933 0.380944
0.414741 0.406480 0.399871
0.435240 0.426160 0.418895
0.455887 0.445944 0.437989
0.476654 0.465805 0.457126
0.497510 0.485714 0.476277
0.518427 0.505644 0.495417
0.539376 0.525565 0.514516
0.560326 0.545450 0.533550
0.581248 0.565271 0.552490
0.602111 0.585000 0.571311
0.622886 0.604608 0.589986
0.361628 0.355315 0.350265
0.381600 0.374584 0.368972
0.401795 0.394032 0.387822
0.422185 0.413631 0.406787
0.442742 0.433352 0.425840
0.463435 0.453167 0.444953
0.484238 0.473049 0.464098
0.505120 0.492969 0.483248
0.526052 0.512899 0.502376
0.547005 0.532810 0.521455
0.567948 0.552675 0.540457
0.588852 0.572466 0.559357
0.609686 0.592154 0.578128
0.630421 0.611711 0.596744
0.651024 0.631109 0.615177
0.671466 0.650320 0.633404
0.691715 0.669316 0.651397
0.429651 0.420798 0.413715
0.450261 0.440557 0.432793
0.470998 0.460399 0.451921
0.491833 0.480298 0.471071
0.512736 0.500225 0.490216
0.533679 0.520151 0.509329
0.554632 0.540049 0.528383
0.575565 0.559891 0.547352
0.596447 0.579647 0.566208
0.617248 0.599291 0.584925
0.637939 0.618793 0.603477
0.658487 0.638127 0.621838
0.678862 0.657263 0.639983
0.699033 0.676173 0.657884
0.718969 0.694830 0.675518
0.738637 0.713204 0.692858
0.758007 0.731269 0.709879
0.499436 0.487551 0.478043
0.520358 0.507481 0.497180
0.541308 0.527400 0.516274
0.562257 0.547281 0.535300
0.583174 0.567095 0.554231
0.604031 0.586813 0.573039
0.624795 0.606409 0.591699
0.645438 0.625853 0.610185
0.665926 0.645118 0.628471
0.686231 0.664175 0.646530
0.706320 0.682996 0.664337
0.726162 0.701553 0.681866
0.745725 0.719819 0.699093
0.764978 0.737764 0.715992
0.783889 0.755360 0.732537
0.802424 0.772580 0.748705
0.820553 0.789396 0.764470
0.569877 0.554504 0.542205
0.590776 0.574286 0.561094
0.611603 0.593963 0.579851
0.632326 0.613507 0.598451
0.652916 0.632889 0.616867
0.673342 0.652081 0.635073
0.693571 0.671056 0.653043
0.713574 0.689784 0.670752
0.733318 0.708238 0.688174
0.752772 0.726390 0.705285
0.771904 0.744212 0.722058
0.790682 0.761674 0.738469
0.809073 0.778750 0.754492
0.827046 0.795412 0.770104
0.844567 0.811629 0.785280
0.861604 0.827376 0.799994
0.878124 0.842624 0.814223
0.639839 0.620583 0.605178
0.660373 0.639899 0.623521
0.680731 0.659016 0.641644
0.700882 0.677904 0.659522
0.720794 0.696536 0.677129
0.740436 0.714883 0.694441
0.759777 0.732918 0.711431
0.778783 0.750612 0.728076
0.797424 0.767937 0.744348
0.815666 0.784866 0.760225
0.833478 0.801369 0.775681
0.850827 0.817418 0.790691
0.867680 0.832986 0.805232
0.884004 0.848045 0.819278
0.899767 0.862566 0.832805
0.914935 0.876520 0.845789
0.929475 0.889881 0.858206
0.708160 0.684718 0.665965
0.727978 0.703250 0.683467
0.747514 0.721487 0.700665
0.766737 0.739401 0.717532
0.785614 0.756964 0.734044
0.804113 0.774148 0.750176
0.822203 0.790925 0.765902
0.839850 0.807266 0.781199
0.857022 0.823143 0.796041
0.873686 0.838529 0.810404
0.889809 0.853395 0.824264
0.905359 0.867713 0.837596
0.920303 0.881455 0.850376
0.934607 0.894592 0.862580
0.948238 0.907097 0.874184
0.961164 0.918941 0.885163
0.973351 0.930097 0.895493
0.773651 0.745837 0.723586
0.792394 0.763265 0.739962
0.810748 0.780304 0.755949
0.828680 0.796926 0.771522
0.846158 0.813101 0.786656
0.863149 0.828803 0.801327
0.879620 0.844003 0.815509
0.895539 0.858673 0.829180
0.910872 0.872784 0.842314
0.925586 0.886309 0.854887
0.939649 0.899219 0.866876
0.953027 0.911487 0.878255
0.965688 0.923084 0.889000
0.977597 0.933981 0.899088
0.988723 0.944152 0.908495
0.999031 0.953567 0.917195
1.000000 0.962198 0.925165
0.835098 0.802868 0.777084
0.852402 0.818874 0.792052
0.869207 0.834397 0.806548
0.885481 0.849407 0.820547
0.901190 0.863876 0.834025
0.916302 0.877777 0.846958
0.930783 0.891082 0.859321
0.944601 0.903761 0.871090
0.957721 0.915788 0.882241
0.970112 0.927133 0.892750
0.981740 0.937770 0.902593
0.992572 0.947668 0.911745
1.000000 0.956801 0.920183
1.000000 0.965141 0.927881
1.000000 0.972658 0.934815
1.000000 0.979325 0.940962
1.000000 0.985114 0.946296
0.000061 0.000061 0.000061
0.000939 0.000939 0.000939
0.002840 0.002839 0.002839
0.005734 0.005733 0.005731
0.009596 0.009591 0.009588
0.014398 0.014387 0.014379
0.020113 0.020092 0.020076
0.026714 0.026678 0.026650
0.034175 0.034117 0.034070
0.042470 0.042380 0.042308
0.051572 0.051440 0.051334
0.061455 0.061267 0.061117
0.072093 0.071835 0.071629
0.083461 0.083115 0.082839
0.095531 0.095079 0.094717
0.108278 0.107698 0.107234
0.121676 0.120945 0.120360
0.007030 0.007027 0.007025
0.011237 0.011230 0.011225
0.016374 0.016361 0.016350
0.022415 0.022390 0.022370
0.029332 0.029289 0.029255
0.037100 0.037031 0.036976
0.045691 0.045587 0.045504
0.055081 0.054930 0.054809
0.065242 0.065031 0.064861
0.076149 0.075861 0.075631
0.087775 0.087393 0.087088
0.100095 0.099599 0.099202
0.113082 0.112450 0.111944
0.126711 0.125918 0.125284
0.140955 0.139976 0.139192
0.155789 0.154594 0.153638
0.171186 0.169745 0.168593
0.024833 0.024802 0.024778
0.032063 0.032012 0.031971
0.040134 0.040053 0.039989
0.049019 0.048899 0.048804
0.058692 0.058521 0.058384
0.069128 0.068890 0.068701
0.080299 0.079980 0.079724
0.092181 0.091760 0.091423
0.104747 0.104204 0.103770
0.117971 0.117283 0.116733
0.131827 0.130969 0.130283
0.146289 0.145234 0.144390
0.161330 0.160050 0.159025
0.176926 0.175388 0.174157
0.193049 0.191220 0.189758
0.209672 0.207519 0.205797
0.226771 0.224256 0.222244
0.052451 0.052314 0.052204
0.062405 0.062211 0.062056
0.073111 0.072846 0.072634
0.084544 0.084190 0.083906
0.096678 0.096215 0.095845
0.109487 0.108894 0.108419
0.122944 0.122197 0.121600
0.137023 0.136097 0.135356
0.151699 0.150566 0.149659
0.166946 0.165575 0.164478
0.182736 0.181096 0.179784
0.199044 0.197102 0.195548
0.215844 0.213563 0.211739
0.233108 0.230453 0.228328
0.250811 0.247742 0.245287
0.268924 0.265402 0.262585
0.287422 0.283406 0.280194
0.088882 0.088491 0.088177
0.101264 0.100757 0.100351
0.114312 0.113666 0.113149
0.127999 0.127190 0.126543
0.142298 0.141300 0.140502
0.157185 0.155969 0.154996
0.172633 0.171168 0.169996
0.188615 0.186869 0.185472
0.205105 0.203043 0.201394
0.222077 0.219664 0.217734
0.239504 0.236702 0.234461
0.257359 0.254130 0.251547
0.275616 0.271919 0.268961
0.294247 0.290041 0.286676
0.313225 0.308468 0.304662
0.332524 0.327172 0.322890
0.352114 0.346124 0.341332
0.133135 0.132260 0.131561
0.147652 0.146577 0.145718
0.162745 0.161442 0.160400
0.178391 0.176827 0.175577
0.194561 0.192704 0.191219
0.211229 0.209044 0.207296
0.228370 0.225820 0.223780
0.245956 0.243003 0.240641
0.263960 0.260566 0.257850
0.282357 0.278479 0.275377
0.301118 0.296716 0.293194
0.320216 0.315247 0.311271
0.339624 0.334044 0.329581
0.359314 0.353080 0.348094
0.379258 0.372327 0.366782
0.399429 0.391755 0.385616
0.419798 0.411338 0.404570
0.184218 0.182552 0.181219
0.200573 0.198601 0.197023
0.217416 0.215103 0.213252
0.234722 0.232030 0.229877
0.252464 0.249355 0.246868
0.270614 0.267048 0.264196
0.289146 0.285083 0.281832
0.308033 0.303429 0.299747
0.327247 0.322061 0.317912
0.346761 0.340948 0.336299
0.366547 0.360064 0.354879
0.386577 0.379380 0.373623
0.406823 0.398868 0.392504
0.427257 0.418500 0.411494
0.447850 0.438247 0.430564
0.468573 0.458081 0.449688
0.489398 0.477975 0.468837
0.241132 0.238293 0.236022
0.259026 0.255755 0.253139
0.277318 0.273576 0.270582
0.295982 0.291727 0.288323
0.314992 0.310181 0.306332
0.334318 0.328909 0.324582
0.353934 0.347883 0.343042
0.373812 0.367075 0.361685
0.393924 0.386457 0.380483
0.414242 0.406000 0.399407
0.434737 0.425677 0.418429
0.455381 0.445459 0.437522
0.476145 0.465319 0.456658
0.496999 0.485227 0.475809
0.517915 0.505156 0.494949
0.538863 0.525078 0.514050
0.559814 0.544965 0.533085
0.302865 0.298412 0.294850
0.321992 0.316969 0.312950
0.341427 0.335790 0.331279
0.361142 0.354846 0.349810
0.381109 0.374111 0.368512
0.401299 0.393555 0.387359
0.421684 0.413150 0.406322
0.442237 0.432868 0.425373
0.462928 0.452682 0.444485
0.483728 0.472562 0.463630
0.504608 0.492482 0.482780
0.525540 0.512411 0.501909
0.546492 0.532324 0.520989
0.567436 0.552190 0.539994
0.588341 0.571983 0.558897
0.609178 0.591674 0.577671
0.629915 0.611235 0.596290
0.368384 0.361837 0.356600
0.388435 0.381170 0.375359
0.408699 0.400672 0.394251
0.429149 0.420316 0.413249
0.449755 0.440072 0.432326
0.470489 0.459913 0.451452
0.491322 0.479811 0.470602
0.512224 0.499738 0.489748
0.533167 0.519664 0.508862
0.554120 0.539563 0.527918
0.575053 0.559406 0.546889
0.595937 0.579165 0.565748
0.616741 0.598812 0.584469
0.637434 0.618318 0.603025
0.657986 0.637656 0.621392
0.678366 0.656797 0.639542
0.698543 0.675713 0.657450
0.436634 0.427497 0.420187
0.457291 0.447287 0.439285
0.478064 0.467152 0.458423
0.498925 0.487064 0.477575
0.519846 0.506994 0.496712
0.540795 0.526913 0.515808
0.561745 0.546795 0.534836
0.582663 0.566611 0.553769
0.603522 0.586332 0.572581
0.624289 0.605931 0.591245
0.644934 0.625379 0.609735
0.665427 0.644649 0.628026
0.685737 0.663711 0.646091
0.705832 0.682539 0.663904
0.725680 0.701103 0.681441
0.745251 0.719376 0.698675
0.764511 0.737329 0.715583
0.506536 0.494319 0.484545
0.527471 0.514248 0.503670
0.548424 0.534158 0.522745
0.569365 0.554019 0.541741
0.590266 0.573803 0.560633
0.611094 0.593483 0.579394
0.631821 0.613030 0.597998
0.652414 0.632417 0.616419
0.672844 0.651614 0.634630
0.693079 0.670594 0.652606
0.713088 0.689329 0.670322
0.732839 0.707790 0.687752
0.752300 0.725950 0.704870
0.771440 0.743780 0.721652
0.790227 0.761252 0.738072
0.808628 0.778338 0.754105
0.826611 0.795009 0.769728
0.576981 0.561232 0.548633
0.597859 0.580982 0.567480
0.618654 0.600616 0.586187
0.639335 0.620108 0.604727
0.659873 0.639429 0.623074
0.680235 0.658551 0.641203
0.700391 0.677445 0.659088
0.720310 0.696083 0.676702
0.739959 0.714438 0.694021
0.759307 0.732481 0.711020
0.778323 0.750184 0.727673
0.796973 0.767518 0.743955
0.815225 0.784457 0.759842
0.833048 0.800970 0.775308
0.850408 0.817031 0.790330
0.867274 0.832612 0.804882
0.883611 0.847683 0.818940
0.646830 0.627164 0.611430
0.667308 0.646415 0.629701
0.687599 0.665457 0.647744
0.707672 0.684262 0.665533
0.727496 0.702800 0.683043
0.747040 0.721044 0.700248
0.766270 0.738967 0.717124
0.785156 0.756539 0.733645
0.803665 0.773732 0.749786
0.821765 0.790519 0.765522
0.839424 0.806871 0.780830
0.856608 0.822761 0.795683
0.873285 0.838159 0.810059
0.889422 0.853038 0.823931
0.904986 0.867370 0.837276
0.919945 0.881126 0.850070
0.934265 0.894278 0.862289
0.714920 0.691043 0.671941
0.734646 0.709478 0.689343
0.754079 0.727608 0.706432
0.773188 0.745406 0.723181
0.791940 0.762844 0.739566
0.810304 0.779892 0.755563
0.828247 0.796524 0.771146
0.845736 0.812711 0.786291
0.862739 0.828425 0.800974
0.879224 0.843637 0.815169
0.895156 0.858320 0.828852
0.910504 0.872446 0.841999
0.925234 0.885985 0.854587
0.939313 0.898911 0.866590
0.952709 0.911195 0.877984
0.965387 0.922808 0.888745
0.977315 0.933723 0.898850
0.780058 0.751798 0.729190
0.798672 0.769097 0.745437
0.816887 0.785997 0.761286
0.834668 0.802470 0.776712
0.851984 0.818488 0.791691
0.868803 0.834023 0.806199
0.885090 0.849046 0.820211
0.900813 0.863529 0.833702
0.915940 0.877444 0.846648
0.930437 0.890764 0.859025
0.944271 0.903459 0.870810
0.957409 0.915502 0.881976
0.969818 0.926864 0.892501
0.981465 0.937518 0.902361
0.992317 0.947435 0.911530
1.000000 0.956587 0.919985
1.000000 0.964946 0.927701
0.841028 0.808356 0.782219
0.858167 0.824201 0.797029
0.874795 0.839553 0.811359
0.890881 0.854383 0.825184
0.906391 0.868662 0.838479
0.921292 0.882364 0.851221
0.935552 0.895459 0.863386
0.949136 0.907920 0.874948
0.962013 0.919719 0.885884
0.974148 0.930827 0.896169
0.985510 0.941215 0.905780
0.996064 0.950857 0.914692
1.000000 0.959724 0.922881
1.000000 0.967787 0.930323
1.000000 0.975019 0.936992
1.000000 0.981391 0.942866
1.000000 0.986875 0.947919
0.000243 0.000243 0.000243
0.001471 0.001471 0.001471
0.003713 0.003712 0.003711
0.006939 0.006936 0.006934
0.011123 0.011116 0.011112
0.016237 0.016224 0.016214
0.022256 0.022232 0.022212
0.029153 0.029110 0.029076
0.036900 0.036832 0.036778
0.045472 0.045369 0.045286
0.054842 0.054692 0.054573
0.064984 0.064775 0.064607
0.075873 0.075588 0.075359
0.087482 0.087103 0.086799
0.099785 0.099292 0.098898
0.112757 0.112128 0.111625
0.126370 0.125582 0.124951
0.008352 0.008349 0.008346
0.012878 0.012870 0.012864
0.018325 0.018309 0.018295
0.024667 0.024636 0.024612
0.031876 0.031825 0.031785
0.039926 0.039847 0.039784
0.048792 0.048674 0.048579
0.058446 0.058277 0.058141
0.068864 0.068628 0.068440
0.080018 0.079700 0.079446
0.091882 0.091464 0.091129
0.104432 0.103892 0.103460
0.117640 0.116956 0.116409
0.131481 0.130627 0.129945
0.145928 0.144878 0.144039
0.160956 0.159681 0.158661
0.176538 0.175007 0.173782
0.027192 0.027155 0.027126
0.034711 0.034651 0.034603
0.043061 0.042969 0.042895
0.052217 0.052081 0.051973
0.062152 0.061960 0.061807
0.072840 0.072577 0.072366
0.084256 0.083904 0.083623
0.096373 0.095913 0.095545
0.109165 0.108576 0.108104
0.122607 0.121864 0.121270
0.136672 0.135750 0.135013
0.151333 0.150205 0.149303
0.166566 0.165201 0.164110
0.182343 0.180711 0.179404
0.198639 0.196705 0.195157
0.215427 0.213155 0.211338
0.232680 0.230035 0.227918
0.055745 0.055591 0.055467
0.065957 0.065741 0.065569
0.076914 0.076620 0.076385
0.088588 0.088199 0.087888
0.100954 0.100449 0.100045
0.113985 0.113343 0.112829
0.127657 0.126852 0.126208
0.141942 0.140948 0.140154
0.156814 0.155604 0.154635
0.172248 0.170790 0.169623
0.188218 0.186479 0.185088
0.204696 0.202642 0.201000
0.221656 0.219252 0.217330
0.239072 0.236281 0.234048
0.256917 0.253699 0.251125
0.275165 0.271480 0.268531
0.293787 0.289594 0.286239
0.093011 0.092582 0.092240
0.105622 0.105070 0.104629
0.118890 0.118191 0.117633
0.132788 0.131917 0.131221
0.147290 0.146221 0.145365
0.162370 0.161072 0.160035
0.178002 0.176445 0.175200
0.194159 0.192310 0.190831
0.210816 0.208639 0.206898
0.227945 0.225405 0.223373
0.245521 0.242578 0.240225
0.263515 0.260132 0.257425
0.281902 0.278037 0.274945
0.300655 0.296266 0.292755
0.319745 0.314790 0.310826
0.339145 0.333582 0.329130
0.358829 0.352612 0.347639
0.137999 0.137059 0.136308
0.152714 0.151566 0.150647
0.167998 0.166610 0.165500
0.183825 0.182165 0.180838
0.200167 0.198203 0.196631
0.216999 0.214694 0.212850
0.234294 0.231611 0.229466
0.252025 0.248927 0.246448
0.270165 0.266611 0.263768
0.288688 0.284638 0.281397
0.307567 0.302977 0.299305
0.326773 0.321602 0.317465
0.346280 0.340484 0.335847
0.366060 0.359594 0.354422
0.386084 0.378906 0.373163
0.406325 0.398390 0.392041
0.426755 0.418018 0.411028
0.189716 0.187950 0.186537
0.206239 0.204155 0.202488
0.223243 0.220805 0.218855
0.240700 0.237871 0.235607
0.258583 0.255324 0.252716
0.276866 0.273136 0.270152
0.295522 0.291280 0.287886
0.314523 0.309726 0.305889
0.333842 0.328448 0.324133
0.353451 0.347416 0.342588
0.373323 0.366603 0.361227
0.393430 0.385981 0.380021
0.413743 0.405520 0.398943
0.434234 0.425194 0.417963
0.454874 0.444974 0.437054
0.475636 0.464832 0.456189
0.496488 0.484740 0.475341
0.247162 0.244181 0.241796
0.265194 0.261768 0.259027
0.283616 0.279705 0.276575
0.302401 0.297962 0.294410
0.321521 0.316512 0.312505
0.340949 0.335326 0.330829
0.360657 0.354378 0.349354
0.380617 0.373637 0.368053
0.400802 0.393077 0.386897
0.421184 0.412669 0.405857
0.441733 0.432385 0.424906
0.462420 0.452196 0.444017
0.483218 0.472075 0.463161
0.504097 0.491994 0.482312
0.525027 0.511924 0.501441
0.545980 0.531837 0.520523
0.566924 0.551705 0.539530
0.309324 0.304683 0.300969
0.328560 0.323332 0.319151
0.348093 0.342236 0.337551
0.367896 0.361367 0.356143
0.387942 0.380695 0.374898
0.408201 0.400194 0.393787
0.428647 0.419834 0.412783
0.449250 0.439588 0.431858
0.469981 0.459427 0.450984
0.490812 0.479324 0.470134
0.511713 0.499250 0.489280
0.532654 0.519177 0.508395
0.553607 0.539077 0.527453
0.574541 0.558922 0.546426
0.595427 0.578683 0.565288
0.616233 0.598333 0.584013
0.636929 0.617843 0.602574
0.375167 0.368382 0.362954
0.395294 0.387776 0.381761
0.415625 0.407329 0.400692
0.436131 0.427014 0.419720
0.456784 0.446802 0.438817
0.477555 0.466666 0.457955
0.498414 0.486576 0.477106
0.519334 0.506506 0.496244
0.540283 0.526427 0.515342
0.561232 0.546310 0.534372
0.582152 0.566127 0.553307
0.603012 0.585851 0.572122
0.623782 0.605453 0.590791
0.644431 0.624906 0.609285
0.664928 0.644180 0.627581
0.685243 0.663248 0.645652
0.705343 0.682081 0.663472
0.443634 0.434208 0.426666
0.464334 0.454027 0.445781
0.485140 0.473911 0.464927
0.506025 0.493831 0.484077
0.526958 0.513761 0.503203
0.547911 0.533671 0.522279
0.568854 0.553534 0.541278
0.589755 0.573320 0.560173
0.610586 0.593003 0.578937
0.631315 0.612554 0.597545
0.651913 0.631945 0.615971
0.672347 0.651147 0.634187
0.692587 0.670133 0.652170
0.712601 0.688874 0.669892
0.732359 0.707342 0.687329
0.751828 0.725510 0.704455
0.770976 0.743348 0.721245
0.513642 0.501087 0.491044
0.534586 0.521013 0.510155
0.555538 0.540909 0.529206
0.576469 0.560748 0.548170
0.597349 0.580500 0.567021
0.618146 0.600138 0.585731
0.638831 0.619634 0.604276
0.659372 0.638959 0.622628
0.679740 0.658086 0.640763
0.699901 0.676986 0.658653
0.719826 0.695631 0.676275
0.739482 0.713993 0.693601
0.758838 0.732044 0.710608
0.777862 0.749755 0.727270
0.796521 0.767099 0.743561
0.814784 0.784047 0.759458
0.832617 0.800572 0.774935
0.584078 0.567950 0.555047
0.604931 0.587664 0.573850
0.625691 0.607254 0.592503
0.646328 0.626690 0.610981
0.666809 0.645947 0.629257
0.687105 0.664994 0.647306
0.707184 0.683805 0.665101
0.727015 0.702350 0.682618
0.746565 0.720602 0.699831
0.765804 0.738532 0.716715
0.784699 0.756113 0.733245
0.803217 0.773317 0.749396
0.821328 0.790114 0.765143
0.838997 0.806477 0.780461
0.856193 0.822378 0.795326
0.872883 0.837788 0.809713
0.889034 0.852680 0.823598
0.653804 0.633723 0.617659
0.674221 0.652907 0.635855
0.694442 0.671871 0.653815
0.714434 0.690589 0.671512
0.734166 0.709030 0.688921
0.753607 0.727168 0.706018
0.772724 0.744975 0.722775
0.791486 0.762422 0.739170
0.809860 0.779480 0.755177
0.827813 0.796123 0.770770
0.845314 0.812321 0.785926
0.862330 0.828047 0.800620
0.878827 0.843272 0.814827
0.894773 0.857968 0.828524
0.910136 0.872107 0.841684
0.924881 0.885662 0.854286
0.938977 0.898603 0.866303
0.721650 0.697336 0.677885
0.741280 0.715670 0.695183
0.760606 0.733691 0.712159
0.779598 0.751370 0.728788
0.798222 0.768678 0.745044
0.816446 0.785589 0.760903
0.834239 0.802073 0.776340
0.851567 0.818102 0.791331
0.868397 0.833649 0.805850
0.884698 0.848685 0.819874
0.900436 0.863181 0.833378
0.915577 0.877111 0.846338
0.930090 0.890445 0.858730
0.943941 0.903156 0.870529
0.957096 0.915215 0.881711
0.969524 0.926595 0.892252
0.981190 0.937266 0.902128
0.786422 0.757716 0.734750
0.804905 0.774883 0.750865
0.822976 0.791641 0.766573
0.840603 0.807963 0.781850
0.857753 0.823820 0.796672
0.874395 0.839183 0.811014
0.890494 0.854026 0.824852
0.906019 0.868320 0.838161
0.920935 0.882036 0.850917
0.935211 0.895147 0.863095
0.948812 0.907623 0.874672
0.961707 0.919438 0.885624
0.973861 0.930563 0.895925
0.985241 0.940970 0.905553
0.995815 0.950630 0.914483
1.000000 0.959516 0.922689
1.000000 0.967600 0.930150
0.846904 0.813791 0.787301
0.863873 0.829472 0.801951
0.880321 0.844649 0.816112
0.896215 0.859295 0.829760
0.911522 0.873382 0.842870
0.926209 0.886881 0.855418
0.940243 0.899764 0.867381
0.953590 0.912003 0.878733
0.966219 0.923570 0.889451
0.978095 0.934437 0.899510
0.989186 0.944575 0.908886
0.999458 0.953957 0.917555
1.000000 0.962554 0.925493
1.000000 0.970338 0.932675
1.000000 0.977281 0.939078
1.000000 0.983355 0.944675
1.000000 0.988531 0.949443
0.000545 0.000545 0.000545
0.002120 0.002120 0.002120
0.004699 0.004698 0.004697
0.008254 0.008250 0.008247
0.012757 0.012749 0.012742
0.018181 0.018165 0.018152
0.024501 0.024471 0.024447
0.031689 0.031639 0.031599
0.039720 0.039641 0.039578
0.048566 0.048448 0.048354
0.058201 0.058033 0.057898
0.068600 0.068366 0.068179
0.079736 0.079421 0.079169
0.091584 0.091168 0.090836
0.104117 0.103580 0.103151
0.117309 0.116629 0.116085
0.131135 0.130286 0.129607
0.009785 0.009780 0.009776
0.014626 0.014616 0.014607
0.020380 0.020359 0.020343
