assets/luts/noir.cube
TITLE "Noir"
LUT_3D_SIZE 5
0.000000 0.000000 0.000000
0.008178 0.008174 0.008172
0.031546 0.031497 0.031457
0.068397 0.068165 0.067979
0.117055 0.116378 0.115836
0.084833 0.084476 0.084191
0.137375 0.136444 0.135700
0.199449 0.197499 0.195939
0.269372 0.265839 0.263012
0.345430 0.339662 0.335047
0.296443 0.292175 0.288760
0.374301 0.367547 0.362143
0.455887 0.445944 0.437989
0.539376 0.525565 0.514516
0.622886 0.604608 0.589986
0.569877 0.554504 0.542205
0.652916 0.632889 0.616867
0.733318 0.708238 0.688174
0.809073 0.778750 0.754492
0.878124 0.842624 0.814223
0.835098 0.802868 0.777084
0.901190 0.863876 0.834025
0.957721 0.915788 0.882241
1.000000 0.956801 0.920183
1.000000 0.985114 0.946296
0.000966 0.000966 0.000966
0.014497 0.014486 0.014478
0.042634 0.042543 0.042471
0.083681 0.083334 0.083056
0.135969 0.135057 0.134328
0.101504 0.100994 0.100586
0.157471 0.156250 0.155273
0.222400 0.219981 0.218045
0.294601 0.290385 0.287012
0.372345 0.365660 0.360312
0.322355 0.317321 0.313293
0.401681 0.393922 0.387715
0.484120 0.472937 0.463990
0.567830 0.552564 0.540350
0.650908 0.631000 0.615074
0.598251 0.581352 0.567833
0.680616 0.658908 0.641542
0.759668 0.732817 0.711336
0.833379 0.801277 0.775595
0.899679 0.862485 0.832730
0.858484 0.824495 0.797303
0.921567 0.882616 0.851456
0.974369 0.931029 0.896356
1.000000 0.967931 0.930455
1.000000 0.991521 0.952196
0.003816 0.003816 0.003815
0.022500 0.022475 0.022455
0.055210 0.055058 0.054937
0.100261 0.099764 0.099366
0.155988 0.154790 0.153832
0.119401 0.118697 0.118133
0.178600 0.177033 0.175780
0.246190 0.243232 0.240866
0.320469 0.315493 0.311511
0.399696 0.392012 0.385865
0.348833 0.342952 0.338248
0.429419 0.420575 0.413500
0.512500 0.500000 0.490000
0.596211 0.579425 0.565995
0.678633 0.657048 0.639779
0.626470 0.607988 0.593202
0.707935 0.684507 0.665765
0.785403 0.756768 0.733860
0.856831 0.822967 0.795876
0.920138 0.881303 0.850235
0.880929 0.845210 0.816635
0.940757 0.900236 0.867819
0.989588 0.944942 0.909225
1.000000 0.977525 0.939303
1.000000 0.996184 0.956489
0.008483 0.008479 0.008476
0.032121 0.032069 0.032028
0.069209 0.068971 0.068781
0.118073 0.117384 0.116833
0.177045 0.175505 0.174273
0.138460 0.137515 0.136758
0.200698 0.198723 0.197144
0.270752 0.267183 0.264327
0.346909 0.341092 0.336438
0.427411 0.418648 0.411637
0.375808 0.369000 0.363553
0.457446 0.447436 0.439429
0.540953 0.527063 0.515951
0.624445 0.606078 0.591385
0.705982 0.682679 0.664037
0.654459 0.634340 0.618245
0.734793 0.709615 0.689473
0.810441 0.780019 0.755682
0.879346 0.843750 0.815273
0.939417 0.899006 0.866678
0.902349 0.864943 0.835018
0.958680 0.916666 0.883055
1.000000 0.957457 0.920788
1.000000 0.985514 0.946664
1.000000 0.999034 0.959112
0.014897 0.014886 0.014877
0.043292 0.043199 0.043124
0.084567 0.084212 0.083928
0.137050 0.136124 0.135383
0.199075 0.197132 0.195578
0.158615 0.157376 0.156386
0.223697 0.221250 0.219291
0.296018 0.291762 0.288357
0.373850 0.367111 0.361720
0.455420 0.445496 0.437558
0.403209 0.395392 0.389139
0.485689 0.474435 0.465431
0.569405 0.554056 0.541777
0.652453 0.632453 0.616453
0.732876 0.707825 0.687784
0.682141 0.660338 0.642896
0.761111 0.734161 0.712602
0.834701 0.802501 0.776741
0.900842 0.863556 0.833727
0.957433 0.915524 0.881997
0.922662 0.883622 0.852391
0.975251 0.931835 0.897102
1.000000 0.968503 0.930983
1.000000 0.991826 0.952477
1.000000 1.000000 0.960000
