assets/luts/noir.cube
TITLE "Noir"
LUT_3D_SIZE 9
0.000000 0.000000 0.000000
0.002081 0.002081 0.002081
0.008178 0.008174 0.008172
0.018071 0.018055 0.018042
0.031546 0.031497 0.031457
0.048392 0.048275 0.048182
0.068397 0.068165 0.067979
0.091355 0.090941 0.090610
0.117055 0.116378 0.115836
0.022573 0.022548 0.022528
0.037300 0.037231 0.037175
0.055320 0.055168 0.055046
0.076425 0.076135 0.075903
0.100404 0.099905 0.099506
0.127052 0.126255 0.125617
0.156159 0.154958 0.153998
0.187516 0.185790 0.184409
0.220912 0.218525 0.216615
0.084833 0.084476 0.084191
0.109808 0.109212 0.108735
0.137375 0.136444 0.135700
0.167325 0.165948 0.164847
0.199449 0.197499 0.195939
0.233536 0.230871 0.228739
0.269372 0.265839 0.263012
0.306743 0.302177 0.298525
0.345430 0.339662 0.335047
0.178780 0.177210 0.175954
0.211643 0.209450 0.207695
0.246391 0.243429 0.241058
0.282811 0.278922 0.275810
0.320687 0.315703 0.311717
0.359799 0.353549 0.348549
0.399925 0.392232 0.386079
0.440840 0.431529 0.424081
0.482316 0.471214 0.462332
0.296443 0.292175 0.288760
0.334794 0.329370 0.325031
0.374301 0.367547 0.362143
0.414741 0.406480 0.399871
0.455887 0.445944 0.437989
0.497510 0.485714 0.476277
0.539376 0.525565 0.514516
0.581248 0.565271 0.552490
0.622886 0.604608 0.589986
0.429651 0.420798 0.413715
0.470998 0.460399 0.451921
0.512736 0.500225 0.490216
0.554632 0.540049 0.528383
0.596447 0.579647 0.566208
0.637939 0.618793 0.603477
0.678862 0.657263 0.639983
0.718969 0.694830 0.675518
0.758007 0.731269 0.709879
0.569877 0.554504 0.542205
0.611603 0.593963 0.579851
0.652916 0.632889 0.616867
0.693571 0.671056 0.653043
0.733318 0.708238 0.688174
0.771904 0.744212 0.722058
0.809073 0.778750 0.754492
0.844567 0.811629 0.785280
0.878124 0.842624 0.814223
0.708160 0.684718 0.665965
0.747514 0.721487 0.700665
0.785614 0.756964 0.734044
0.822203 0.790925 0.765902
0.857022 0.823143 0.796041
0.889809 0.853395 0.824264
0.920303 0.881455 0.850376
0.948238 0.907097 0.874184
0.973351 0.930097 0.895493
0.835098 0.802868 0.777084
0.869207 0.834397 0.806548
0.901190 0.863876 0.834025
0.930783 0.891082 0.859321
0.957721 0.915788 0.882241
0.981740 0.937770 0.902593
1.000000 0.956801 0.920183
1.000000 0.972658 0.934815
1.000000 0.985114 0.946296
0.000243 0.000243 0.000243
0.003713 0.003712 0.003711
0.011123 0.011116 0.011112
0.022256 0.022232 0.022212
0.036900 0.036832 0.036778
0.054842 0.054692 0.054573
0.075873 0.075588 0.075359
0.099785 0.099292 0.098898
0.126370 0.125582 0.124951
0.027192 0.027155 0.027126
0.043061 0.042969 0.042895
0.062152 0.061960 0.061807
0.084256 0.083904 0.083623
0.109165 0.108576 0.108104
0.136672 0.135750 0.135013
0.166566 0.165201 0.164110
0.198639 0.196705 0.195157
0.232680 0.230035 0.227918
0.093011 0.092582 0.092240
0.118890 0.118191 0.117633
0.147290 0.146221 0.145365
0.178002 0.176445 0.175200
0.210816 0.208639 0.206898
0.245521 0.242578 0.240225
0.281902 0.278037 0.274945
0.319745 0.314790 0.310826
0.358829 0.352612 0.347639
0.189716 0.187950 0.186537
0.223243 0.220805 0.218855
0.258583 0.255324 0.252716
0.295522 0.291280 0.287886
0.333842 0.328448 0.324133
0.373323 0.366603 0.361227
0.413743 0.405520 0.398943
0.454874 0.444974 0.437054
0.496488 0.484740 0.475341
0.309324 0.304683 0.300969
0.348093 0.342236 0.337551
0.387942 0.380695 0.374898
0.428647 0.419834 0.412783
0.469981 0.459427 0.450984
0.511713 0.499250 0.489280
0.553607 0.539077 0.527453
0.595427 0.578683 0.565288
0.636929 0.617843 0.602574
0.443634 0.434208 0.426666
0.485140 0.473911 0.464927
0.526958 0.513761 0.503203
0.568854 0.553534 0.541278
0.610586 0.593003 0.578937
0.651913 0.631945 0.615971
0.692587 0.670133 0.652170
0.732359 0.707342 0.687329
0.770976 0.743348 0.721245
0.584078 0.567950 0.555047
0.625691 0.607254 0.592503
0.666809 0.645947 0.629257
0.707184 0.683805 0.665101
0.746565 0.720602 0.699831
0.784699 0.756113 0.733245
0.821328 0.790114 0.765143
0.856193 0.822378 0.795326
0.889034 0.852680 0.823598
0.721650 0.697336 0.677885
0.760606 0.733691 0.712159
0.798222 0.768678 0.745044
0.834239 0.802073 0.776340
0.868397 0.833649 0.805850
0.900436 0.863181 0.833378
0.930090 0.890445 0.858730
0.957096 0.915215 0.881711
0.981190 0.937266 0.902128
0.846904 0.813791 0.787301
0.880321 0.844649 0.816112
0.911522 0.873382 0.842870
0.940243 0.899764 0.867381
0.966219 0.923570 0.889451
0.989186 0.944575 0.908886
1.000000 0.962554 0.925493
1.000000 0.977281 0.939078
1.000000 0.988531 0.949443
0.000966 0.000966 0.000966
0.005798 0.005796 0.005795
0.014497 0.014486 0.014478
0.026846 0.026810 0.026782
0.042634 0.042543 0.042471
0.061648 0.061459 0.061308
0.083681 0.083334 0.083056
0.108524 0.107942 0.107476
0.135969 0.135057 0.134328
0.032207 0.032155 0.032114
0.049194 0.049073 0.048977
0.069331 0.069093 0.068902
0.092411 0.091988 0.091650
0.118226 0.117535 0.116983
0.146566 0.145508 0.144661
0.177224 0.175681 0.174447
0.209990 0.207830 0.206102
0.244651 0.241729 0.239392
0.101504 0.100994 0.100586
0.128262 0.127450 0.126800
0.157471 0.156250 0.155273
0.188920 0.187169 0.185767
0.222400 0.219981 0.218045
0.257699 0.254461 0.251871
0.294601 0.290385 0.287012
0.332890 0.327526 0.323235
0.372345 0.365660 0.360312
0.200885 0.198907 0.197325
0.235052 0.232353 0.230193
0.270959 0.267385 0.264525
0.308391 0.303777 0.300086
0.347131 0.341306 0.336647
0.386956 0.379745 0.373977
0.427643 0.418870 0.411852
0.468964 0.458455 0.450048
0.510689 0.498275 0.488344
0.322355 0.317321 0.313293
0.361516 0.355207 0.350160
0.401681 0.393922 0.387715
0.442625 0.433240 0.425732
0.484120 0.472937 0.463990
0.525934 0.512786 0.502268
0.567830 0.552564 0.540350
0.609569 0.592043 0.578023
0.650908 0.631000 0.615074
0.457680 0.447660 0.439644
0.499318 0.487439 0.477935
0.541190 0.527288 0.516167
0.583056 0.566983 0.554124
0.624678 0.606299 0.591595
0.665811 0.645009 0.628368
0.706207 0.682890 0.664237
0.745616 0.719716 0.698997
0.783783 0.755262 0.732445
0.598251 0.581352 0.567833
0.639723 0.620474 0.605074
0.680616 0.658908 0.641542
0.720682 0.696431 0.677031
0.759668 0.732817 0.711336
0.797320 0.767841 0.744258
0.833379 0.801277 0.775595
0.867586 0.832900 0.805151
0.899679 0.862485 0.832730
0.735014 0.709822 0.689668
0.773544 0.745738 0.723493
0.810646 0.780209 0.755860
0.846061 0.813011 0.786572
0.879529 0.843919 0.815431
0.910787 0.872706 0.842241
0.939572 0.899148 0.866810
0.965618 0.923020 0.888941
0.988662 0.944096 0.908444
0.858484 0.824495 0.797303
0.891178 0.854656 0.825439
0.921567 0.882616 0.851456
0.949385 0.908149 0.875159
0.974369 0.931029 0.896356
0.996254 0.951031 0.914853
1.000000 0.967931 0.930455
1.000000 0.981503 0.942969
1.000000 0.991521 0.952196
0.002160 0.002159 0.002159
0.008330 0.008326 0.008323
0.018292 0.018275 0.018262
0.031833 0.031782 0.031742
0.048740 0.048621 0.048527
0.068803 0.068568 0.068380
0.091813 0.091396 0.091062
0.117563 0.116880 0.116334
0.145845 0.144796 0.143958
0.037609 0.037539 0.037483
0.055690 0.055535 0.055412
0.076850 0.076557 0.076322
0.100882 0.100378 0.099975
0.127578 0.126774 0.126131
0.156729 0.155519 0.154552
0.188126 0.186389 0.184999
0.221559 0.219157 0.217236
0.256815 0.253600 0.251027
0.110303 0.109702 0.109220
0.137917 0.136979 0.136229
0.167910 0.166524 0.165415
0.200073 0.198111 0.196541
0.234195 0.231515 0.229371
0.270062 0.266511 0.263669
0.307459 0.302873 0.299204
0.346169 0.340376 0.335742
0.385971 0.378796 0.373057
0.212280 0.210074 0.208308
0.247062 0.244083 0.241700
0.283511 0.279602 0.276475
0.321412 0.316406 0.312402
0.360545 0.354269 0.349249
0.400688 0.392967 0.386790
0.441616 0.432273 0.424799
0.483101 0.471963 0.463053
0.524909 0.511812 0.501333
0.335528 0.330080 0.325722
0.375054 0.368273 0.362848
0.415510 0.407218 0.400585
0.456667 0.446690 0.438709
0.498296 0.486464 0.476998
0.540165 0.526314 0.515234
0.582034 0.566016 0.553201
0.623665 0.605343 0.590686
0.664813 0.644072 0.627478
0.471780 0.461147 0.452641
0.513524 0.500975 0.490936
0.555420 0.540797 0.529099
0.597231 0.580389 0.566915
0.638715 0.619524 0.604172
0.679625 0.657978 0.640661
0.719714 0.695526 0.676176
0.758730 0.731943 0.710513
0.796417 0.767002 0.743470
0.612384 0.594701 0.580554
0.653688 0.633615 0.617556
0.694328 0.671765 0.653714
0.734056 0.708927 0.688824
0.772617 0.744875 0.722682
0.809757 0.779385 0.755087
0.845217 0.812231 0.785842
0.878735 0.843187 0.814749
0.910051 0.872029 0.841612
0.748243 0.722167 0.701306
0.786317 0.757618 0.734658
0.822875 0.791548 0.766486
0.857658 0.823731 0.796590
0.890405 0.853944 0.824775
0.920853 0.881960 0.850846
0.948738 0.907555 0.874609
0.973794 0.930502 0.895869
0.995758 0.950578 0.914434
0.869830 0.834971 0.807084
0.901770 0.864410 0.834522
0.931315 0.891571 0.859775
0.958201 0.916228 0.882649
0.982162 0.938156 0.902950
1.000000 0.957130 0.920486
1.000000 0.972924 0.935061
1.000000 0.985315 0.946481
1.000000 0.994075 0.954548
0.003816 0.003816 0.003815
0.011298 0.011292 0.011287
0.022500 0.022475 0.022455
0.037208 0.037139 0.037083
0.055210 0.055058 0.054937
0.076297 0.076008 0.075777
0.100261 0.099764 0.099366
0.126895 0.126099 0.125463
0.155988 0.154790 0.153832
0.043391 0.043297 0.043222
0.062541 0.062346 0.062191
0.084700 0.084344 0.084059
0.109660 0.109065 0.108589
0.137213 0.136284 0.135541
0.167150 0.165776 0.164677
0.199262 0.197316 0.195758
0.233338 0.230678 0.228549
0.269165 0.265637 0.262815
0.119401 0.118697 0.118133
0.147847 0.146770 0.145908
0.178600 0.177033 0.175780
0.211452 0.209262 0.207511
0.246190 0.243232 0.240866
0.282602 0.278717 0.275610
0.320469 0.315493 0.311511
0.359575 0.353333 0.348339
0.399696 0.392012 0.385865
0.223892 0.221440 0.219479
0.259264 0.255988 0.253366
0.296231 0.291968 0.288559
0.334574 0.329157 0.324823
0.374076 0.367329 0.361932
0.414511 0.406258 0.399657
0.455654 0.445720 0.437774
0.497274 0.485489 0.476061
0.539139 0.525340 0.514301
0.348833 0.342952 0.338248
0.388700 0.381426 0.375607
0.429419 0.420575 0.413500
0.470763 0.460175 0.451705
0.512500 0.500000 0.490000
0.554396 0.539825 0.528169
0.596211 0.579425 0.565995
0.637706 0.618574 0.603269
0.678633 0.657048 0.639779
0.485925 0.474660 0.465648
0.527747 0.514511 0.503922
0.569641 0.554280 0.541991
0.611368 0.593742 0.579640
0.652685 0.632671 0.616660
0.693344 0.670843 0.652842
0.733097 0.708032 0.687979
0.771690 0.744012 0.721870
0.808868 0.778560 0.754314
0.626470 0.607988 0.593202
0.667576 0.646667 0.629940
0.707935 0.684507 0.665765
0.747295 0.721283 0.700473
0.785403 0.756768 0.733860
0.822001 0.790738 0.765727
0.856831 0.822967 0.795876
0.889630 0.853230 0.824110
0.920138 0.881303 0.850235
0.761327 0.734363 0.712791
0.798915 0.769322 0.745648
0.834899 0.802684 0.776912
0.869021 0.834224 0.806387
0.901016 0.863716 0.833876
0.930623 0.890935 0.859185
0.957577 0.915656 0.882119
0.981613 0.937654 0.902486
1.000000 0.956703 0.920091
0.880929 0.845210 0.816635
0.912086 0.873901 0.843352
0.940757 0.900236 0.867819
0.966680 0.923992 0.889841
0.989588 0.944942 0.909225
1.000000 0.962861 0.925777
1.000000 0.977525 0.939303
1.000000 0.988708 0.949606
1.000000 0.996184 0.956489
0.005927 0.005925 0.005924
0.014696 0.014685 0.014677
0.027112 0.027076 0.027046
0.042962 0.042870 0.042797
0.062036 0.061844 0.061691
0.084123 0.083772 0.083492
0.109017 0.108429 0.107959
0.136509 0.135590 0.134855
0.166391 0.165029 0.163940
0.049544 0.049422 0.049324
0.069739 0.069498 0.069304
0.092872 0.092445 0.092103
0.118736 0.118040 0.117482
0.147123 0.146056 0.145203
0.177822 0.176269 0.175026
0.210625 0.208452 0.206714
0.245320 0.242382 0.240032
0.281693 0.277833 0.274745
0.128790 0.127971 0.127316
0.158042 0.156813 0.155829
0.189532 0.187769 0.186359
0.223048 0.220615 0.218668
0.258379 0.255125 0.252521
0.295309 0.291073 0.287684
0.333622 0.328235 0.323925
0.373097 0.366385 0.361016
0.413512 0.405299 0.398728
0.235712 0.232998 0.230826
0.271650 0.268057 0.265183
0.309109 0.304474 0.300766
0.347871 0.342022 0.337343
0.387714 0.380476 0.374685
0.428415 0.419611 0.412568
0.469746 0.459203 0.450768
0.511476 0.499025 0.489064
0.553371 0.538853 0.527238
0.362263 0.355928 0.350861
0.402444 0.394657 0.388427
0.443401 0.433984 0.426451
0.484905 0.473686 0.464711
0.526722 0.513536 0.502987
0.568617 0.553310 0.541064
0.610351 0.592782 0.578726
0.651681 0.631727 0.615764
0.692360 0.669920 0.651968
0.500105 0.488188 0.478655
0.541978 0.528037 0.516884
0.583843 0.567727 0.554834
0.625458 0.607033 0.592294
0.666579 0.645731 0.629052
0.706959 0.683594 0.664902
0.746346 0.720398 0.699639
0.784487 0.755917 0.733061
0.821126 0.789926 0.764967
0.640499 0.621204 0.605768
0.681379 0.659624 0.642219
0.721427 0.697127 0.677688
0.760390 0.733489 0.711969
0.798014 0.768485 0.744862
0.834041 0.801889 0.776168
0.868210 0.833476 0.805689
0.900261 0.863021 0.833229
0.929930 0.890298 0.858593
0.774256 0.746400 0.724116
0.811328 0.780843 0.756454
0.846709 0.813611 0.787133
0.880138 0.844481 0.815955
0.911352 0.873226 0.842725
0.940088 0.899622 0.867249
0.966081 0.923443 0.889333
0.989065 0.944465 0.908784
1.000000 0.962461 0.925408
0.891772 0.855204 0.825949
0.922115 0.883120 0.851924
0.949882 0.908604 0.875582
0.974811 0.931432 0.896730
0.996635 0.951379 0.915174
1.000000 0.968218 0.930720
1.000000 0.981725 0.943173
1.000000 0.991674 0.952337
1.000000 0.997841 0.958013
0.008483 0.008479 0.008476
0.018515 0.018497 0.018484
0.032121 0.032069 0.032028
0.049089 0.048969 0.048873
0.069209 0.068971 0.068781
0.092273 0.091851 0.091514
0.118073 0.117384 0.116833
0.146400 0.145344 0.144499
0.177045 0.175505 0.174273
0.056060 0.055904 0.055779
0.077276 0.076980 0.076743
0.101360 0.100852 0.100445
0.128104 0.127294 0.126646
0.157299 0.156081 0.155107
0.188737 0.186989 0.185590
0.222206 0.219791 0.217858
0.257495 0.254262 0.251676
0.294388 0.290178 0.286810
0.138460 0.137515 0.136758
0.168496 0.167100 0.165983
0.200698 0.198723 0.197144
0.234854 0.232159 0.230003
0.270752 0.267183 0.264327
0.308176 0.303569 0.299882
0.346909 0.341092 0.336438
0.386728 0.379526 0.373765
0.427411 0.418648 0.411637
0.247733 0.244738 0.242342
0.284212 0.280284 0.277141
0.322137 0.317110 0.313087
0.361291 0.354991 0.349950
0.401452 0.393701 0.387501
0.442392 0.433017 0.425517
0.483885 0.472712 0.463774
0.525697 0.512561 0.502053
0.567594 0.552340 0.540136
0.375808 0.369000 0.363553
0.416278 0.407957 0.401300
0.457446 0.447436 0.439429
0.499083 0.487214 0.477719
0.540953 0.527063 0.515951
0.582821 0.566760 0.553911
0.624445 0.606078 0.591385
0.665581 0.644793 0.628163
0.705982 0.682679 0.664037
0.514311 0.501725 0.491656
0.556208 0.541545 0.529814
0.598015 0.581130 0.567621
0.639490 0.620255 0.604866
0.680388 0.658694 0.641339
0.720459 0.696223 0.676834
0.759452 0.732615 0.711146
0.797111 0.767647 0.744076
0.833180 0.801093 0.775423
0.654459 0.634340 0.618245
0.695085 0.672474 0.654385
0.734793 0.709615 0.689473
0.773330 0.745539 0.723306
0.810441 0.780019 0.755682
0.845866 0.812831 0.786404
0.879346 0.843750 0.815273
0.910617 0.872550 0.842096
0.939417 0.899006 0.866678
0.787019 0.758271 0.735272
0.823547 0.792170 0.767069
0.858294 0.824319 0.797139
0.891000 0.854492 0.825286
0.921402 0.882465 0.851315
0.949236 0.908012 0.875032
0.974237 0.930907 0.896244
0.996140 0.950927 0.914756
1.000000 0.967845 0.930376
0.902349 0.864943 0.835018
0.931847 0.892058 0.860228
0.958680 0.916666 0.883055
0.982584 0.938541 0.903306
1.000000 0.957457 0.920788
1.000000 0.973190 0.935306
1.000000 0.985514 0.946664
1.000000 0.994204 0.954666
1.000000 0.999034 0.959112
0.011476 0.011469 0.011464
0.022745 0.022719 0.022699
0.037517 0.037446 0.037390
0.055579 0.055425 0.055302
0.076722 0.076430 0.076196
0.100739 0.100236 0.099834
0.127420 0.126618 0.125977
0.156558 0.155351 0.154386
0.187943 0.186209 0.184822
0.062931 0.062734 0.062576
0.085144 0.084785 0.084497
0.110155 0.109555 0.109075
0.137754 0.136819 0.136070
0.167735 0.166351 0.165244
0.199886 0.197927 0.196360
0.233997 0.231322 0.229181
0.269855 0.266309 0.263472
0.307244 0.302664 0.299000
0.148405 0.147320 0.146451
0.179200 0.177622 0.176360
0.212089 0.209886 0.208124
0.246861 0.243887 0.241507
0.283301 0.279398 0.276276
0.321194 0.316195 0.312196
0.360321 0.354053 0.349039
0.400459 0.392746 0.386577
0.441383 0.432050 0.424583
0.259946 0.256652 0.254017
0.296940 0.292658 0.289232
0.335308 0.329867 0.325515
0.374828 0.368055 0.362637
0.415279 0.406997 0.400371
0.456433 0.446466 0.438493
0.498060 0.486239 0.476782
0.539928 0.526089 0.515019
0.581798 0.565792 0.552988
0.389459 0.382157 0.376315
0.430192 0.421317 0.414217
0.471545 0.460923 0.452425
0.513288 0.500750 0.490720
0.555184 0.540573 0.528884
0.596996 0.580166 0.566702
0.638482 0.619305 0.603963
0.679396 0.657764 0.640458
0.719491 0.695317 0.675979
0.528535 0.515260 0.504641
0.570428 0.555026 0.542704
0.612150 0.594480 0.580343
0.653456 0.633397 0.617349
0.694101 0.671552 0.653513
0.733835 0.708720 0.688629
0.772404 0.744676 0.722495
0.809552 0.779195 0.754909
0.845022 0.812050 0.785673
0.668343 0.647388 0.630623
0.708686 0.685210 0.666429
0.748024 0.721963 0.701114
0.786106 0.757422 0.734474
0.822673 0.791361 0.766311
0.857467 0.823555 0.796425
0.890226 0.853779 0.824622
0.920688 0.881809 0.850705
0.948588 0.907418 0.874481
0.799608 0.769965 0.746251
0.835559 0.803295 0.777484
0.869643 0.834799 0.806923
0.901596 0.864250 0.834373
0.931156 0.891424 0.859639
0.958057 0.916096 0.882527
0.982036 0.938040 0.902843
1.000000 0.957031 0.920395
1.000000 0.972845 0.934987
0.912649 0.874418 0.843834
0.941271 0.900708 0.868257
0.967139 0.924412 0.890231
0.989988 0.945308 0.909563
1.000000 0.963168 0.926060
1.000000 0.977768 0.939527
1.000000 0.988884 0.949768
1.000000 0.996288 0.956585
1.000000 0.999757 0.959777
0.014897 0.014886 0.014877
0.027379 0.027342 0.027312
0.043292 0.043199 0.043124
0.062424 0.062230 0.062075
0.084567 0.084212 0.083928
0.109511 0.108918 0.108444
0.137050 0.136124 0.135383
0.166975 0.165603 0.164507
0.199075 0.197132 0.195578
0.070148 0.069903 0.069708
0.093335 0.092903 0.092558
0.119248 0.118545 0.117983
0.147679 0.146605 0.145745
0.178421 0.176857 0.175606
0.211261 0.209075 0.207327
0.245989 0.243036 0.240673
0.282392 0.278513 0.275410
0.320252 0.315282 0.311306
0.158615 0.157376 0.156386
0.190145 0.188371 0.186951
0.223697 0.221250 0.219291
0.259060 0.255788 0.253171
0.296018 0.291762 0.288357
0.334355 0.328944 0.324616
0.373850 0.367111 0.361720
0.414280 0.406037 0.399442
0.455420 0.445496 0.437558
0.272342 0.268731 0.265842
0.309827 0.305170 0.301445
0.348611 0.342737 0.338039
0.388473 0.381207 0.375394
0.429188 0.420353 0.413285
0.470528 0.459951 0.451488
0.512264 0.499775 0.489784
0.554159 0.539601 0.527954
0.595976 0.579202 0.565783
0.403209 0.395392 0.389139
0.444178 0.434729 0.427169
0.485689 0.474435 0.465431
0.527510 0.514286 0.503706
0.569405 0.554056 0.541777
0.611133 0.593520 0.579429
0.652453 0.632453 0.616453
0.693117 0.670630 0.652640
0.732876 0.707825 0.687784
0.542767 0.528786 0.517601
0.584629 0.568471 0.555544
0.626237 0.607768 0.592992
0.667346 0.646451 0.629735
0.707710 0.684297 0.665566
0.747076 0.721078 0.700280
0.785191 0.756571 0.733675
0.821799 0.790550 0.765552
0.856639 0.822790 0.795711
0.682141 0.660338 0.642896
0.722170 0.697823 0.678344
0.761111 0.734161 0.712602
0.798707 0.769129 0.745467
0.834701 0.802501 0.776741
0.868834 0.834052 0.806226
0.900842 0.863556 0.833727
0.930463 0.890788 0.859048
0.957433 0.915524 0.881997
0.812010 0.781475 0.757047
0.847357 0.814210 0.787693
0.880747 0.845042 0.816478
0.911917 0.873745 0.843208
0.940603 0.900095 0.867688
0.966542 0.923865 0.889724
0.989467 0.944832 0.909124
1.000000 0.962769 0.925692
1.000000 0.977452 0.939235
0.922662 0.883622 0.852391
0.950378 0.909059 0.876003
0.975251 0.931835 0.897102
0.997014 0.951725 0.915494
1.000000 0.968503 0.930983
1.000000 0.981945 0.943377
1.000000 0.991826 0.952477
1.000000 0.997919 0.958085
1.000000 1.000000 0.960000
