assets/luts/warm_fade.cube
TITLE "Warm Fade"
LUT_3D_SIZE 17
0.048452 0.040129 0.023729
0.096095 0.042253 0.025853
0.144051 0.044391 0.027991
0.192317 0.046543 0.030143
0.240896 0.048709 0.032309
0.289786 0.050889 0.034489
0.338987 0.053083 0.036683
0.388500 0.055290 0.038890
0.438325 0.057512 0.041112
0.488461 0.059747 0.043347
0.538909 0.061997 0.045597
0.589668 0.064260 0.047860
0.640739 0.066537 0.050137
0.692121 0.068828 0.052428
0.743815 0.071133 0.054733
0.795821 0.073452 0.057052
0.848138 0.075784 0.059384
0.055291 0.090530 0.030568
0.102934 0.092654 0.032692
0.150890 0.094793 0.034830
0.199156 0.096945 0.036982
0.247735 0.099111 0.039148
0.296625 0.101291 0.041328
0.345826 0.103484 0.043522
0.395339 0.105692 0.045730
0.445164 0.107914 0.047951
0.495300 0.110149 0.050187
0.545748 0.112398 0.052436
0.596507 0.114662 0.054699
0.647578 0.116939 0.056976
0.698960 0.119230 0.059267
0.750654 0.121535 0.061572
0.802660 0.123853 0.063891
0.854977 0.126186 0.066224
0.062130 0.140932 0.037407
0.109773 0.143056 0.039531
0.157729 0.145194 0.041669
0.205996 0.147346 0.043821
0.254574 0.149512 0.045987
0.303464 0.151692 0.048167
0.352665 0.153886 0.050361
0.402178 0.156094 0.052569
0.452003 0.158315 0.054790
0.502139 0.160551 0.057026
0.552587 0.162800 0.059275
0.603346 0.165063 0.061538
0.654417 0.167340 0.063815
0.705799 0.169631 0.066106
0.757493 0.171936 0.068411
0.809499 0.174255 0.070730
0.861816 0.176588 0.073063
0.068969 0.191333 0.044246
0.116613 0.193458 0.046370
0.164568 0.195596 0.048508
0.212835 0.197748 0.050660
0.261413 0.199914 0.052826
0.310303 0.202094 0.055006
0.359505 0.204288 0.057200
0.409018 0.206495 0.059408
0.458842 0.208717 0.061629
0.508978 0.210952 0.063865
0.559426 0.213202 0.066114
0.610185 0.215465 0.068377
0.661256 0.217742 0.070654
0.712638 0.220033 0.072945
0.764332 0.222338 0.075250
0.816338 0.224657 0.077569
0.868655 0.226989 0.079902
0.075808 0.241735 0.051085
0.123452 0.243859 0.053209
0.171407 0.245997 0.055347
0.219674 0.248150 0.057500
0.268252 0.250316 0.059666
0.317142 0.252495 0.061845
0.366344 0.254689 0.064039
0.415857 0.256897 0.066247
0.465681 0.259118 0.068468
0.515817 0.261354 0.070704
0.566265 0.263603 0.072953
0.617024 0.265866 0.075216
0.668095 0.268143 0.077493
0.719478 0.270435 0.079785
0.771171 0.272739 0.082089
0.823177 0.275058 0.084408
0.875494 0.277391 0.086741
0.082647 0.292137 0.057924
0.130291 0.294261 0.060048
0.178246 0.296399 0.062187
0.226513 0.298551 0.064339
0.275091 0.300717 0.066505
0.323981 0.302897 0.068684
0.373183 0.305091 0.070878
0.422696 0.307298 0.073086
0.472520 0.309520 0.075307
0.522657 0.311755 0.077543
0.573104 0.314005 0.079792
0.623864 0.316268 0.082055
0.674934 0.318545 0.084333
0.726317 0.320836 0.086624
0.778011 0.323141 0.088929
0.830016 0.325460 0.091247
0.882333 0.327792 0.093580
0.089486 0.342538 0.064763
0.137130 0.344662 0.066887
0.185085 0.346801 0.069026
0.233352 0.348953 0.071178
0.281930 0.351119 0.073344
0.330820 0.353299 0.075524
0.380022 0.355492 0.077717
0.429535 0.357700 0.079925
0.479359 0.359922 0.082147
0.529496 0.362157 0.084382
0.579943 0.364406 0.086631
0.630703 0.366670 0.088895
0.681773 0.368947 0.091172
0.733156 0.371238 0.093463
0.784850 0.373543 0.095768
0.836855 0.375861 0.098086
0.889172 0.378194 0.100419
0.096325 0.392940 0.071602
0.143969 0.395064 0.073727
0.191924 0.397202 0.075865
0.240191 0.399354 0.078017
0.288769 0.401520 0.080183
0.337659 0.403700 0.082363
0.386861 0.405894 0.084556
0.436374 0.408102 0.086764
0.486199 0.410323 0.088986
0.536335 0.412559 0.091221
0.586782 0.414808 0.093470
0.637542 0.417071 0.095734
0.688613 0.419348 0.098011
0.739995 0.421639 0.100302
0.791689 0.423944 0.102607
0.843694 0.426263 0.104925
0.896011 0.428596 0.107258
0.103164 0.443341 0.078441
0.150808 0.445466 0.080566
0.198763 0.447604 0.082704
0.247030 0.449756 0.084856
0.295609 0.451922 0.087022
0.344499 0.454102 0.089202
0.393700 0.456296 0.091396
0.443213 0.458503 0.093603
0.493038 0.460725 0.095825
0.543174 0.462960 0.098060
0.593622 0.465210 0.100310
0.644381 0.467473 0.102573
0.695452 0.469750 0.104850
0.746834 0.472041 0.107141
0.798528 0.474346 0.109446
0.850533 0.476665 0.111765
0.902850 0.478997 0.114097
0.110003 0.493743 0.085280
0.157647 0.495867 0.087405
0.205602 0.498005 0.089543
0.253869 0.500158 0.091695
0.302448 0.502324 0.093861
0.351338 0.504503 0.096041
0.400539 0.506697 0.098235
0.450052 0.508905 0.100442
0.499877 0.511126 0.102664
0.550013 0.513362 0.104899
0.600461 0.515611 0.107149
0.651220 0.517874 0.109412
0.702291 0.520151 0.111689
0.753673 0.522443 0.113980
0.805367 0.524747 0.116285
0.857372 0.527066 0.118604
0.909689 0.529399 0.120936
0.116843 0.544145 0.092120
0.164486 0.546269 0.094244
0.212442 0.548407 0.096382
0.260708 0.550559 0.098534
0.309287 0.552725 0.100700
0.358177 0.554905 0.102880
0.407378 0.557099 0.105074
0.456891 0.559306 0.107281
0.506716 0.561528 0.109503
0.556852 0.563763 0.111738
0.607300 0.566013 0.113988
0.658059 0.568276 0.116251
0.709130 0.570553 0.118528
0.760512 0.572844 0.120819
0.812206 0.575149 0.123124
0.864212 0.577468 0.125443
0.916529 0.579800 0.127775
0.123682 0.594546 0.098959
0.171325 0.596670 0.101083
0.219281 0.598809 0.103221
0.267547 0.600961 0.105373
0.316126 0.603127 0.107539
0.365016 0.605307 0.109719
0.414217 0.607500 0.111913
0.463730 0.609708 0.114121
0.513555 0.611930 0.116342
0.563691 0.614165 0.118578
0.614139 0.616414 0.120827
0.664898 0.618678 0.123090
0.715969 0.620955 0.125367
0.767351 0.623246 0.127658
0.819045 0.625551 0.129963
0.871051 0.627869 0.132282
0.923368 0.630202 0.134615
0.130521 0.644948 0.105798
0.178164 0.647072 0.107922
0.226120 0.649210 0.110060
0.274387 0.651362 0.112212
0.322965 0.653528 0.114378
0.371855 0.655708 0.116558
0.421056 0.657902 0.118752
0.470569 0.660110 0.120960
0.520394 0.662331 0.123181
0.570530 0.664567 0.125417
0.620978 0.666816 0.127666
0.671737 0.669079 0.129929
0.722808 0.671356 0.132206
0.774190 0.673647 0.134497
0.825884 0.675952 0.136802
0.877890 0.678271 0.139121
0.930207 0.680604 0.141454
0.137360 0.695349 0.112637
0.185004 0.697474 0.114761
0.232959 0.699612 0.116899
0.281226 0.701764 0.119051
0.329804 0.703930 0.121217
0.378694 0.706110 0.123397
0.427896 0.708304 0.125591
0.477409 0.710511 0.127799
0.527233 0.712733 0.130020
0.577369 0.714968 0.132256
0.627817 0.717218 0.134505
0.678576 0.719481 0.136768
0.729647 0.721758 0.139045
0.781029 0.724049 0.141336
0.832723 0.726354 0.143641
0.884729 0.728673 0.145960
0.937046 0.731005 0.148293
0.144199 0.745751 0.119476
0.191843 0.747875 0.121600
0.239798 0.750013 0.123738
0.288065 0.752166 0.125891
0.336643 0.754332 0.128057
0.385533 0.756511 0.130236
0.434735 0.758705 0.132430
0.484248 0.760913 0.134638
0.534072 0.763134 0.136859
0.584208 0.765370 0.139095
0.634656 0.767619 0.141344
0.685415 0.769882 0.143607
0.736486 0.772159 0.145884
0.787869 0.774451 0.148176
0.839562 0.776755 0.150480
0.891568 0.779074 0.152799
0.943885 0.781407 0.155132
0.151038 0.796153 0.126315
0.198682 0.798277 0.128439
0.246637 0.800415 0.130578
0.294904 0.802567 0.132730
0.343482 0.804733 0.134896
0.392372 0.806913 0.137075
0.441574 0.809107 0.139269
0.491087 0.811314 0.141477
0.540911 0.813536 0.143698
0.591048 0.815771 0.145934
0.641495 0.818021 0.148183
0.692255 0.820284 0.150446
0.743325 0.822561 0.152724
0.794708 0.824852 0.155015
0.846402 0.827157 0.157320
0.898407 0.829476 0.159638
0.950724 0.831808 0.161971
0.157877 0.846554 0.133154
0.205521 0.848678 0.135278
0.253476 0.850817 0.137417
0.301743 0.852969 0.139569
0.350321 0.855135 0.141735
0.399211 0.857315 0.143915
0.448413 0.859508 0.146108
0.497926 0.861716 0.148316
0.547750 0.863938 0.150538
0.597887 0.866173 0.152773
0.648334 0.868422 0.155022
0.699094 0.870686 0.157286
0.750164 0.872963 0.159563
0.801547 0.875254 0.161854
0.853241 0.877559 0.164159
0.905246 0.879877 0.166477
0.957563 0.882210 0.168810
0.049085 0.040762 0.064337
0.096729 0.042886 0.066461
0.144684 0.045025 0.068600
0.192951 0.047177 0.070752
0.241529 0.049343 0.072918
0.290419 0.051523 0.075098
0.339621 0.053716 0.077291
0.389134 0.055924 0.079499
0.438958 0.058146 0.081721
0.489095 0.060381 0.083956
0.539542 0.062630 0.086205
0.590302 0.064894 0.088469
0.641372 0.067171 0.090746
0.692755 0.069462 0.093037
0.744449 0.071767 0.095342
0.796454 0.074085 0.097660
0.848771 0.076418 0.099993
0.055924 0.091164 0.071176
0.103568 0.093288 0.073300
0.151523 0.095426 0.075439
0.199790 0.097578 0.077591
0.248368 0.099744 0.079757
0.297258 0.101924 0.081937
0.346460 0.104118 0.084130
0.395973 0.106326 0.086338
0.445798 0.108547 0.088560
0.495934 0.110783 0.090795
0.546381 0.113032 0.093044
0.597141 0.115295 0.095308
0.648211 0.117572 0.097585
0.699594 0.119863 0.099876
0.751288 0.122168 0.102181
0.803293 0.124487 0.104499
0.855610 0.126820 0.106832
0.062763 0.141565 0.078015
0.110407 0.143690 0.080140
0.158362 0.145828 0.082278
0.206629 0.147980 0.084430
0.255208 0.150146 0.086596
0.304097 0.152326 0.088776
0.353299 0.154520 0.090970
0.402812 0.156727 0.093177
0.452637 0.158949 0.095399
0.502773 0.161184 0.097634
0.553221 0.163434 0.099884
0.603980 0.165697 0.102147
0.655051 0.167974 0.104424
0.706433 0.170265 0.106715
0.758127 0.172570 0.109020
0.810132 0.174889 0.111339
0.862449 0.177221 0.113671
0.069602 0.191967 0.084854
0.117246 0.194091 0.086979
0.165201 0.196229 0.089117
0.213468 0.198381 0.091269
0.262047 0.200547 0.093435
0.310937 0.202727 0.095615
0.360138 0.204921 0.097809
0.409651 0.207129 0.100016
0.459476 0.209350 0.102238
0.509612 0.211586 0.104473
0.560060 0.213835 0.106723
0.610819 0.216098 0.108986
0.661890 0.218375 0.111263
0.713272 0.220666 0.113554
0.764966 0.222971 0.115859
0.816971 0.225290 0.118178
0.869288 0.227623 0.120510
0.076441 0.242368 0.091693
0.124085 0.244493 0.093818
0.172040 0.246631 0.095956
0.220307 0.248783 0.098108
0.268886 0.250949 0.100274
0.317776 0.253129 0.102454
0.366977 0.255323 0.104648
0.416490 0.257530 0.106855
0.466315 0.259752 0.109077
0.516451 0.261987 0.111312
0.566899 0.264237 0.113562
0.617658 0.266500 0.115825
0.668729 0.268777 0.118102
0.720111 0.271068 0.120393
0.771805 0.273373 0.122698
0.823811 0.275692 0.125017
0.876128 0.278024 0.127349
0.083281 0.292770 0.098533
0.130924 0.294894 0.100657
0.178880 0.297033 0.102795
0.227146 0.299185 0.104947
0.275725 0.301351 0.107113
0.324615 0.303531 0.109293
0.373816 0.305724 0.111487
0.423329 0.307932 0.113694
0.473154 0.310154 0.115916
0.523290 0.312389 0.118151
0.573738 0.314638 0.120401
0.624497 0.316902 0.122664
0.675568 0.319179 0.124941
0.726950 0.321470 0.127232
0.778644 0.323775 0.129537
0.830650 0.326093 0.131856
0.882967 0.328426 0.134189
0.090120 0.343172 0.105372
0.137763 0.345296 0.107496
0.185719 0.347434 0.109634
0.233986 0.349586 0.111786
0.282564 0.351752 0.113952
0.331454 0.353932 0.116132
0.380655 0.356126 0.118326
0.430168 0.358334 0.120534
0.479993 0.360555 0.122755
0.530129 0.362791 0.124991
0.580577 0.365040 0.127240
0.631336 0.367303 0.129503
0.682407 0.369580 0.131780
0.733789 0.371871 0.134071
0.785483 0.374176 0.136376
0.837489 0.376495 0.138695
0.889806 0.378828 0.141028
0.096959 0.393573 0.112211
0.144602 0.395698 0.114335
0.192558 0.397836 0.116473
0.240825 0.399988 0.118625
0.289403 0.402154 0.120791
0.338293 0.404334 0.122971
0.387494 0.406528 0.125165
0.437008 0.408735 0.127373
0.486832 0.410957 0.129594
0.536968 0.413192 0.131830
0.587416 0.415442 0.134079
0.638175 0.417705 0.136342
0.689246 0.419982 0.138619
0.740628 0.422273 0.140910
0.792322 0.424578 0.143215
0.844328 0.426897 0.145534
0.896645 0.429229 0.147867
0.103798 0.443975 0.119050
0.151442 0.446099 0.121174
0.199397 0.448237 0.123312
0.247664 0.450389 0.125464
0.296242 0.452555 0.127630
0.345132 0.454735 0.129810
0.394334 0.456929 0.132004
0.443847 0.459137 0.134212
0.493671 0.461358 0.136433
0.543807 0.463594 0.138669
0.594255 0.465843 0.140918
0.645014 0.468106 0.143181
0.696085 0.470383 0.145458
0.747468 0.472674 0.147749
0.799161 0.474979 0.150054
0.851167 0.477298 0.152373
0.903484 0.479631 0.154706
0.110637 0.494376 0.125889
0.158281 0.496501 0.128013
0.206236 0.498639 0.130151
0.254503 0.500791 0.132304
0.303081 0.502957 0.134470
0.351971 0.505137 0.136649
0.401173 0.507331 0.138843
0.450686 0.509538 0.141051
0.500510 0.511760 0.143272
0.550646 0.513995 0.145508
0.601094 0.516245 0.147757
0.651853 0.518508 0.150020
0.702924 0.520785 0.152298
0.754307 0.523076 0.154589
0.806001 0.525381 0.156893
0.858006 0.527700 0.159212
0.910323 0.530032 0.161545
0.117476 0.544778 0.132728
0.165120 0.546902 0.134852
0.213075 0.549041 0.136991
0.261342 0.551193 0.139143
0.309920 0.553359 0.141309
0.358810 0.555539 0.143489
0.408012 0.557732 0.145682
0.457525 0.559940 0.147890
0.507349 0.562162 0.150112
0.557486 0.564397 0.152347
0.607933 0.566646 0.154596
0.658693 0.568910 0.156860
0.709763 0.571187 0.159137
0.761146 0.573478 0.161428
0.812840 0.575783 0.163733
0.864845 0.578101 0.166051
0.917162 0.580434 0.168384
0.124315 0.595180 0.139567
0.171959 0.597304 0.141691
0.219914 0.599442 0.143830
0.268181 0.601594 0.145982
0.316759 0.603760 0.148148
0.365649 0.605940 0.150328
0.414851 0.608134 0.152521
0.464364 0.610342 0.154729
0.514189 0.612563 0.156951
0.564325 0.614799 0.159186
0.614772 0.617048 0.161435
0.665532 0.619311 0.163699
0.716602 0.621588 0.165976
0.767985 0.623879 0.168267
0.819679 0.626184 0.170572
0.871684 0.628503 0.172890
0.924001 0.630836 0.175223
0.131154 0.645581 0.146406
0.178798 0.647706 0.148531
0.226753 0.649844 0.150669
0.275020 0.651996 0.152821
0.323599 0.654162 0.154987
0.372488 0.656342 0.157167
0.421690 0.658536 0.159361
0.471203 0.660743 0.161568
0.521028 0.662965 0.163790
0.571164 0.665200 0.166025
0.621612 0.667450 0.168275
0.672371 0.669713 0.170538
0.723442 0.671990 0.172815
0.774824 0.674281 0.175106
0.826518 0.676586 0.177411
0.878523 0.678905 0.179730
0.930840 0.681237 0.182062
0.137993 0.695983 0.153245
0.185637 0.698107 0.155370
0.233592 0.700245 0.157508
0.281859 0.702397 0.159660
0.330438 0.704563 0.161826
0.379328 0.706743 0.164006
0.428529 0.708937 0.166200
0.478042 0.711145 0.168407
0.527867 0.713366 0.170629
0.578003 0.715602 0.172864
0.628451 0.717851 0.175114
0.679210 0.720114 0.177377
0.730281 0.722391 0.179654
0.781663 0.724682 0.181945
0.833357 0.726987 0.184250
0.885362 0.729306 0.186569
0.937679 0.731639 0.188901
0.144832 0.746384 0.160084
0.192476 0.748509 0.162209
0.240431 0.750647 0.164347
0.288698 0.752799 0.166499
0.337277 0.754965 0.168665
0.386167 0.757145 0.170845
0.435368 0.759339 0.173039
0.484881 0.761546 0.175246
0.534706 0.763768 0.177468
0.584842 0.766003 0.179703
0.635290 0.768253 0.181953
0.686049 0.770516 0.184216
0.737120 0.772793 0.186493
0.788502 0.775084 0.188784
0.840196 0.777389 0.191089
0.892202 0.779708 0.193408
0.944519 0.782040 0.195740
0.151672 0.796786 0.166924
0.199315 0.798910 0.169048
0.247271 0.801049 0.171186
0.295537 0.803201 0.173338
0.344116 0.805367 0.175504
0.393006 0.807547 0.177684
0.442207 0.809740 0.179878
0.491720 0.811948 0.182085
0.541545 0.814170 0.184307
0.591681 0.816405 0.186542
0.642129 0.818654 0.188792
0.692888 0.820918 0.191055
0.743959 0.823195 0.193332
0.795341 0.825486 0.195623
0.847035 0.827791 0.197928
0.899041 0.830109 0.200247
0.951358 0.832442 0.202580
0.158511 0.847188 0.173763
0.206154 0.849312 0.175887
0.254110 0.851450 0.178025
0.302377 0.853602 0.180177
0.350955 0.855768 0.182343
0.399845 0.857948 0.184523
0.449046 0.860142 0.186717
0.498559 0.862350 0.188925
0.548384 0.864571 0.191146
0.598520 0.866807 0.193382
0.648968 0.869056 0.195631
0.699727 0.871319 0.197894
0.750798 0.873596 0.200171
0.802180 0.875887 0.202462
0.853874 0.878192 0.204767
0.905880 0.880511 0.207086
0.958197 0.882844 0.209419
0.049719 0.041396 0.104946
0.097362 0.043520 0.107070
0.145318 0.045658 0.109208
0.193584 0.047810 0.111360
0.242163 0.049976 0.113526
0.291053 0.052156 0.115706
0.340254 0.054350 0.117900
0.389767 0.056558 0.120108
0.439592 0.058779 0.122329
0.489728 0.061015 0.124565
0.540176 0.063264 0.126814
0.590935 0.065527 0.129077
0.642006 0.067804 0.131354
0.693388 0.070095 0.133645
0.745082 0.072400 0.135950
0.797088 0.074719 0.138269
0.849405 0.077052 0.140602
0.056558 0.091797 0.111785
0.104201 0.093922 0.113909
0.152157 0.096060 0.116047
0.200424 0.098212 0.118199
0.249002 0.100378 0.120365
0.297892 0.102558 0.122545
0.347093 0.104751 0.124739
0.396606 0.106959 0.126947
0.446431 0.109181 0.129168
0.496567 0.111416 0.131404
0.547015 0.113665 0.133653
0.597774 0.115929 0.135916
0.648845 0.118206 0.138193
0.700227 0.120497 0.140484
0.751921 0.122802 0.142789
0.803927 0.125121 0.145108
0.856244 0.127453 0.147441
0.063397 0.142199 0.118624
0.111041 0.144323 0.120748
0.158996 0.146461 0.122886
0.207263 0.148613 0.125038
0.255841 0.150779 0.127204
0.304731 0.152959 0.129384
0.353933 0.155153 0.131578
0.403446 0.157361 0.133786
0.453270 0.159582 0.136007
0.503406 0.161818 0.138243
0.553854 0.164067 0.140492
0.604613 0.166330 0.142755
0.655684 0.168607 0.145032
0.707066 0.170898 0.147323
0.758760 0.173203 0.149628
0.810766 0.175522 0.151947
0.863083 0.177855 0.154280
0.070236 0.192600 0.125463
0.117880 0.194725 0.127587
0.165835 0.196863 0.129725
0.214102 0.199015 0.131878
0.262680 0.201181 0.134044
0.311570 0.203361 0.136223
0.360772 0.205555 0.138417
0.410285 0.207762 0.140625
0.460109 0.209984 0.142846
0.510245 0.212219 0.145082
0.560693 0.214469 0.147331
0.611452 0.216732 0.149594
0.662523 0.219009 0.151872
0.713906 0.221300 0.154163
0.765599 0.223605 0.156467
0.817605 0.225924 0.158786
0.869922 0.228256 0.161119
0.077075 0.243002 0.132302
0.124719 0.245126 0.134426
0.172674 0.247265 0.136565
0.220941 0.249417 0.138717
0.269519 0.251583 0.140883
0.318409 0.253762 0.143062
0.367611 0.255956 0.145256
0.417124 0.258164 0.147464
0.466948 0.260385 0.149685
0.517085 0.262621 0.151921
0.567532 0.264870 0.154170
0.618292 0.267133 0.156433
0.669362 0.269411 0.158711
0.720745 0.271702 0.161002
0.772439 0.274007 0.163307
0.824444 0.276325 0.165625
0.876761 0.278658 0.167958
0.083914 0.293404 0.139141
0.131558 0.295528 0.141265
0.179513 0.297666 0.143404
0.227780 0.299818 0.145556
0.276358 0.301984 0.147722
0.325248 0.304164 0.149902
0.374450 0.306358 0.152095
0.423963 0.308566 0.154303
0.473787 0.310787 0.156525
0.523924 0.313023 0.158760
0.574371 0.315272 0.161009
0.625131 0.317535 0.163273
0.676201 0.319812 0.165550
0.727584 0.322103 0.167841
0.779278 0.324408 0.170146
0.831283 0.326727 0.172464
0.883600 0.329060 0.174797
0.090753 0.343805 0.145980
0.138397 0.345930 0.148105
0.186352 0.348068 0.150243
0.234619 0.350220 0.152395
0.283197 0.352386 0.154561
0.332087 0.354566 0.156741
0.381289 0.356759 0.158934
0.430802 0.358967 0.161142
0.480627 0.361189 0.163364
0.530763 0.363424 0.165599
0.581210 0.365673 0.167848
0.631970 0.367937 0.170112
0.683041 0.370214 0.172389
0.734423 0.372505 0.174680
0.786117 0.374810 0.176985
0.838122 0.377129 0.179304
0.890439 0.379461 0.181636
0.097592 0.394207 0.152819
0.145236 0.396331 0.154944
0.193191 0.398469 0.157082
0.241458 0.400621 0.159234
0.290037 0.402787 0.161400
0.338927 0.404967 0.163580
0.388128 0.407161 0.165774
0.437641 0.409369 0.167981
0.487466 0.411590 0.170203
0.537602 0.413826 0.172438
0.588050 0.416075 0.174688
0.638809 0.418338 0.176951
0.689880 0.420615 0.179228
0.741262 0.422906 0.181519
0.792956 0.425211 0.183824
0.844961 0.427530 0.186143
0.897278 0.429863 0.188475
0.104431 0.444608 0.159658
0.152075 0.446733 0.161783
0.200030 0.448871 0.163921
0.248297 0.451023 0.166073
0.296876 0.453189 0.168239
0.345766 0.455369 0.170419
0.394967 0.457563 0.172613
0.444480 0.459770 0.174820
0.494305 0.461992 0.177042
0.544441 0.464227 0.179277
0.594889 0.466477 0.181527
0.645648 0.468740 0.183790
0.696719 0.471017 0.186067
0.748101 0.473308 0.188358
0.799795 0.475613 0.190663
0.851800 0.477932 0.192982
0.904117 0.480264 0.195314
0.111271 0.495010 0.166498
0.158914 0.497134 0.168622
0.206870 0.499273 0.170760
0.255136 0.501425 0.172912
0.303715 0.503591 0.175078
0.352605 0.505770 0.177258
0.401806 0.507964 0.179452
0.451319 0.510172 0.181659
0.501144 0.512393 0.183881
0.551280 0.514629 0.186116
0.601728 0.516878 0.188366
0.652487 0.519141 0.190629
0.703558 0.521419 0.192906
0.754940 0.523710 0.195197
0.806634 0.526015 0.197502
0.858640 0.528333 0.199821
0.910957 0.530666 0.202153
0.118110 0.545412 0.173337
0.165753 0.547536 0.175461
0.213709 0.549674 0.177599
0.261975 0.551826 0.179751
0.310554 0.553992 0.181917
0.359444 0.556172 0.184097
0.408645 0.558366 0.186291
0.458158 0.560574 0.188499
0.507983 0.562795 0.190720
0.558119 0.565031 0.192956
0.608567 0.567280 0.195205
0.659326 0.569543 0.197468
0.710397 0.571820 0.199745
0.761779 0.574111 0.202036
0.813473 0.576416 0.204341
0.865479 0.578735 0.206660
0.917796 0.581068 0.208993
0.124949 0.595813 0.180176
0.172592 0.597938 0.182300
0.220548 0.600076 0.184438
0.268815 0.602228 0.186590
0.317393 0.604394 0.188756
0.366283 0.606574 0.190936
0.415484 0.608767 0.193130
0.464997 0.610975 0.195338
0.514822 0.613197 0.197559
0.564958 0.615432 0.199795
0.615406 0.617681 0.202044
0.666165 0.619945 0.204307
0.717236 0.622222 0.206584
0.768618 0.624513 0.208875
0.820312 0.626818 0.211180
0.872318 0.629137 0.213499
0.924635 0.631469 0.215832
0.131788 0.646215 0.187015
0.179432 0.648339 0.189139
0.227387 0.650477 0.191277
0.275654 0.652629 0.193429
0.324232 0.654795 0.195595
0.373122 0.656975 0.197775
0.422324 0.659169 0.199969
0.471837 0.661377 0.202177
0.521661 0.663598 0.204398
0.571797 0.665834 0.206634
0.622245 0.668083 0.208883
0.673004 0.670346 0.211146
0.724075 0.672623 0.213423
0.775457 0.674914 0.215714
0.827151 0.677219 0.218019
0.879157 0.679538 0.220338
0.931474 0.681871 0.222671
0.138627 0.696616 0.193854
0.186271 0.698741 0.195978
0.234226 0.700879 0.198116
0.282493 0.703031 0.200269
0.331071 0.705197 0.202435
0.379961 0.707377 0.204614
0.429163 0.709571 0.206808
0.478676 0.711778 0.209016
0.528500 0.714000 0.211237
0.578636 0.716235 0.213473
0.629084 0.718485 0.215722
0.679843 0.720748 0.217985
0.730914 0.723025 0.220263
0.782297 0.725316 0.222554
0.833990 0.727621 0.224858
0.885996 0.729940 0.227177
0.938313 0.732272 0.229510
0.145466 0.747018 0.200693
0.193110 0.749142 0.202817
0.241065 0.751281 0.204956
0.289332 0.753433 0.207108
0.337910 0.755599 0.209274
0.386800 0.757778 0.211453
0.436002 0.759972 0.213647
0.485515 0.762180 0.215855
0.535339 0.764401 0.218076
0.585476 0.766637 0.220312
0.635923 0.768886 0.222561
0.686683 0.771149 0.224824
0.737753 0.773427 0.227102
0.789136 0.775718 0.229393
0.840830 0.778023 0.231698
0.892835 0.780341 0.234016
0.945152 0.782674 0.236349
0.152305 0.797420 0.207532
0.199949 0.799544 0.209656
0.247904 0.801682 0.211795
0.296171 0.803834 0.213947
0.344749 0.806000 0.216113
0.393639 0.808180 0.218293
0.442841 0.810374 0.220486
0.492354 0.812582 0.222694
0.542178 0.814803 0.224916
0.592315 0.817039 0.227151
0.642762 0.819288 0.229400
0.693522 0.821551 0.231664
0.744592 0.823828 0.233941
0.795975 0.826119 0.236232
0.847669 0.828424 0.238537
0.899674 0.830743 0.240855
0.951991 0.833076 0.243188
0.159144 0.847821 0.214371
0.206788 0.849946 0.216496
0.254743 0.852084 0.218634
0.303010 0.854236 0.220786
0.351588 0.856402 0.222952
0.400478 0.858582 0.225132
0.449680 0.860775 0.227325
0.499193 0.862983 0.229533
0.549018 0.865205 0.231755
0.599154 0.867440 0.233990
0.649601 0.869689 0.236239
0.700361 0.871953 0.238503
0.751432 0.874230 0.240780
0.802814 0.876521 0.243071
0.854508 0.878826 0.245376
0.906513 0.881145 0.247695
0.958830 0.883477 0.250027
0.050352 0.042029 0.145554
0.097996 0.044153 0.147678
0.145951 0.046292 0.149817
0.194218 0.048444 0.151969
0.242796 0.050610 0.154135
0.291686 0.052790 0.156315
0.340888 0.054983 0.158508
0.390401 0.057191 0.160716
0.440226 0.059413 0.162938
0.490362 0.061648 0.165173
0.540809 0.063897 0.167422
0.591569 0.066161 0.169686
0.642639 0.068438 0.171963
0.694022 0.070729 0.174254
0.745716 0.073034 0.176559
0.797721 0.075352 0.178877
0.850038 0.077685 0.181210
0.057191 0.092431 0.152393
0.104835 0.094555 0.154518
0.152790 0.096693 0.156656
