assets/luts/warm_fade.cube
TITLE "Warm Fade"
LUT_3D_SIZE 5
0.048452 0.040129 0.023729
0.240896 0.048709 0.032309
0.438325 0.057512 0.041112
0.640739 0.066537 0.050137
0.848138 0.075784 0.059384
0.075808 0.241735 0.051085
0.268252 0.250316 0.059666
0.465681 0.259118 0.068468
0.668095 0.268143 0.077493
0.875494 0.277391 0.086741
0.103164 0.443341 0.078441
0.295609 0.451922 0.087022
0.493038 0.460725 0.095825
0.695452 0.469750 0.104850
0.902850 0.478997 0.114097
0.130521 0.644948 0.105798
0.322965 0.653528 0.114378
0.520394 0.662331 0.123181
0.722808 0.671356 0.132206
0.930207 0.680604 0.141454
0.157877 0.846554 0.133154
0.350321 0.855135 0.141735
0.547750 0.863938 0.150538
0.750164 0.872963 0.159563
0.957563 0.882210 0.168810
0.050986 0.042663 0.186163
0.243430 0.051243 0.194743
0.440859 0.060046 0.203546
0.643273 0.069071 0.212571
0.850672 0.078319 0.221819
0.078342 0.244269 0.213519
0.270786 0.252850 0.222100
0.468216 0.261653 0.230903
0.670629 0.270678 0.239928
0.878028 0.279925 0.249175
0.105699 0.445876 0.240876
0.298143 0.454456 0.249456
0.495572 0.463259 0.258259
0.697986 0.472284 0.267284
0.905385 0.481531 0.276531
0.133055 0.647482 0.268232
0.325499 0.656063 0.276813
0.522928 0.664865 0.285615
0.725342 0.673891 0.294641
0.932741 0.683138 0.303888
0.160411 0.849088 0.295588
0.352856 0.857669 0.304169
0.550285 0.866472 0.312972
0.752699 0.875497 0.321997
0.960097 0.884744 0.331244
0.053520 0.045197 0.348597
0.245964 0.053778 0.357178
0.443393 0.062580 0.365980
0.645807 0.071606 0.375006
0.853206 0.080853 0.384253
0.080876 0.246803 0.375953
0.273321 0.255384 0.384534
0.470750 0.264187 0.393337
0.673164 0.273212 0.402362
0.880562 0.282459 0.411609
0.108233 0.448410 0.403310
0.300677 0.456990 0.411890
0.498106 0.465793 0.420693
0.700520 0.474818 0.429718
0.907919 0.484066 0.438966
0.135589 0.650016 0.430666
0.328033 0.658597 0.439247
0.525463 0.667400 0.448050
0.727876 0.676425 0.457075
0.935275 0.685672 0.466322
0.162946 0.851623 0.458023
0.355390 0.860203 0.466603
0.552819 0.869006 0.475406
0.755233 0.878031 0.484431
0.962632 0.887279 0.493679
0.056054 0.047731 0.511031
0.248498 0.056312 0.519612
0.445928 0.065115 0.528415
0.648341 0.074140 0.537440
0.855740 0.083387 0.546687
0.083411 0.249338 0.538388
0.275855 0.257918 0.546968
0.473284 0.266721 0.555771
0.675698 0.275746 0.564796
0.883097 0.284994 0.574044
0.110767 0.450944 0.565744
0.303211 0.459525 0.574325
0.500640 0.468327 0.583127
0.703054 0.477353 0.592153
0.910453 0.486600 0.601400
0.138123 0.652550 0.593100
0.330568 0.661131 0.601681
0.527997 0.669934 0.610484
0.730411 0.678959 0.619509
0.937809 0.688206 0.628756
0.165480 0.854157 0.620457
0.357924 0.862737 0.629037
0.555353 0.871540 0.637840
0.757767 0.880565 0.646865
0.965166 0.889813 0.656113
0.058588 0.050265 0.673465
0.251033 0.058846 0.682046
0.448462 0.067649 0.690849
0.650876 0.076674 0.699874
0.858274 0.085921 0.709121
0.085945 0.251872 0.700822
0.278389 0.260452 0.709402
0.475818 0.269255 0.718205
0.678232 0.278280 0.727230
0.885631 0.287528 0.736478
0.113301 0.453478 0.728178
0.305745 0.462059 0.736759
0.503175 0.470862 0.745562
0.705588 0.479887 0.754587
0.912987 0.489134 0.763834
0.140658 0.655085 0.755535
0.333102 0.663665 0.764115
0.530531 0.672468 0.772918
0.732945 0.681493 0.781943
0.940344 0.690741 0.791191
0.168014 0.856691 0.782891
0.360458 0.865272 0.791472
0.557887 0.874074 0.800274
0.760301 0.883100 0.809300
0.967700 0.892347 0.818547
