assets/luts/warm_fade.cube
TITLE "Warm Fade"
LUT_3D_SIZE 9
0.048452 0.040129 0.023729
0.144051 0.044391 0.027991
0.240896 0.048709 0.032309
0.338987 0.053083 0.036683
0.438325 0.057512 0.041112
0.538909 0.061997 0.045597
0.640739 0.066537 0.050137
0.743815 0.071133 0.054733
0.848138 0.075784 0.059384
0.062130 0.140932 0.037407
0.157729 0.145194 0.041669
0.254574 0.149512 0.045987
0.352665 0.153886 0.050361
0.452003 0.158315 0.054790
0.552587 0.162800 0.059275
0.654417 0.167340 0.063815
0.757493 0.171936 0.068411
0.861816 0.176588 0.073063
0.075808 0.241735 0.051085
0.171407 0.245997 0.055347
0.268252 0.250316 0.059666
0.366344 0.254689 0.064039
0.465681 0.259118 0.068468
0.566265 0.263603 0.072953
0.668095 0.268143 0.077493
0.771171 0.272739 0.082089
0.875494 0.277391 0.086741
0.089486 0.342538 0.064763
0.185085 0.346801 0.069026
0.281930 0.351119 0.073344
0.380022 0.355492 0.077717
0.479359 0.359922 0.082147
0.579943 0.364406 0.086631
0.681773 0.368947 0.091172
0.784850 0.373543 0.095768
0.889172 0.378194 0.100419
0.103164 0.443341 0.078441
0.198763 0.447604 0.082704
0.295609 0.451922 0.087022
0.393700 0.456296 0.091396
0.493038 0.460725 0.095825
0.593622 0.465210 0.100310
0.695452 0.469750 0.104850
0.798528 0.474346 0.109446
0.902850 0.478997 0.114097
0.116843 0.544145 0.092120
0.212442 0.548407 0.096382
0.309287 0.552725 0.100700
0.407378 0.557099 0.105074
0.506716 0.561528 0.109503
0.607300 0.566013 0.113988
0.709130 0.570553 0.118528
0.812206 0.575149 0.123124
0.916529 0.579800 0.127775
0.130521 0.644948 0.105798
0.226120 0.649210 0.110060
0.322965 0.653528 0.114378
0.421056 0.657902 0.118752
0.520394 0.662331 0.123181
0.620978 0.666816 0.127666
0.722808 0.671356 0.132206
0.825884 0.675952 0.136802
0.930207 0.680604 0.141454
0.144199 0.745751 0.119476
0.239798 0.750013 0.123738
0.336643 0.754332 0.128057
0.434735 0.758705 0.132430
0.534072 0.763134 0.136859
0.634656 0.767619 0.141344
0.736486 0.772159 0.145884
0.839562 0.776755 0.150480
0.943885 0.781407 0.155132
0.157877 0.846554 0.133154
0.253476 0.850817 0.137417
0.350321 0.855135 0.141735
0.448413 0.859508 0.146108
0.547750 0.863938 0.150538
0.648334 0.868422 0.155022
0.750164 0.872963 0.159563
0.853241 0.877559 0.164159
0.957563 0.882210 0.168810
0.049719 0.041396 0.104946
0.145318 0.045658 0.109208
0.242163 0.049976 0.113526
0.340254 0.054350 0.117900
0.439592 0.058779 0.122329
0.540176 0.063264 0.126814
0.642006 0.067804 0.131354
0.745082 0.072400 0.135950
0.849405 0.077052 0.140602
0.063397 0.142199 0.118624
0.158996 0.146461 0.122886
0.255841 0.150779 0.127204
0.353933 0.155153 0.131578
0.453270 0.159582 0.136007
0.553854 0.164067 0.140492
0.655684 0.168607 0.145032
0.758760 0.173203 0.149628
0.863083 0.177855 0.154280
0.077075 0.243002 0.132302
0.172674 0.247265 0.136565
0.269519 0.251583 0.140883
0.367611 0.255956 0.145256
0.466948 0.260385 0.149685
0.567532 0.264870 0.154170
0.669362 0.269411 0.158711
0.772439 0.274007 0.163307
0.876761 0.278658 0.167958
0.090753 0.343805 0.145980
0.186352 0.348068 0.150243
0.283197 0.352386 0.154561
0.381289 0.356759 0.158934
0.480627 0.361189 0.163364
0.581210 0.365673 0.167848
0.683041 0.370214 0.172389
0.786117 0.374810 0.176985
0.890439 0.379461 0.181636
0.104431 0.444608 0.159658
0.200030 0.448871 0.163921
0.296876 0.453189 0.168239
0.394967 0.457563 0.172613
0.494305 0.461992 0.177042
0.594889 0.466477 0.181527
0.696719 0.471017 0.186067
0.799795 0.475613 0.190663
0.904117 0.480264 0.195314
0.118110 0.545412 0.173337
0.213709 0.549674 0.177599
0.310554 0.553992 0.181917
0.408645 0.558366 0.186291
0.507983 0.562795 0.190720
0.608567 0.567280 0.195205
0.710397 0.571820 0.199745
0.813473 0.576416 0.204341
0.917796 0.581068 0.208993
0.131788 0.646215 0.187015
0.227387 0.650477 0.191277
0.324232 0.654795 0.195595
0.422324 0.659169 0.199969
0.521661 0.663598 0.204398
0.622245 0.668083 0.208883
0.724075 0.672623 0.213423
0.827151 0.677219 0.218019
0.931474 0.681871 0.222671
0.145466 0.747018 0.200693
0.241065 0.751281 0.204956
0.337910 0.755599 0.209274
0.436002 0.759972 0.213647
0.535339 0.764401 0.218076
0.635923 0.768886 0.222561
0.737753 0.773427 0.227102
0.840830 0.778023 0.231698
0.945152 0.782674 0.236349
0.159144 0.847821 0.214371
0.254743 0.852084 0.218634
0.351588 0.856402 0.222952
0.449680 0.860775 0.227325
0.549018 0.865205 0.231755
0.649601 0.869689 0.236239
0.751432 0.874230 0.240780
0.854508 0.878826 0.245376
0.958830 0.883477 0.250027
0.050986 0.042663 0.186163
0.146585 0.046925 0.190425
0.243430 0.051243 0.194743
0.341521 0.055617 0.199117
0.440859 0.060046 0.203546
0.541443 0.064531 0.208031
0.643273 0.069071 0.212571
0.746349 0.073667 0.217167
0.850672 0.078319 0.221819
0.064664 0.143466 0.199841
0.160263 0.147728 0.204103
0.257108 0.152047 0.208422
0.355200 0.156420 0.212795
0.454537 0.160849 0.217224
0.555121 0.165334 0.221709
0.656951 0.169875 0.226250
0.760028 0.174470 0.230845
0.864350 0.179122 0.235497
0.078342 0.244269 0.213519
0.173941 0.248532 0.217782
0.270786 0.252850 0.222100
0.368878 0.257223 0.226473
0.468216 0.261653 0.230903
0.568799 0.266137 0.235387
0.670629 0.270678 0.239928
0.773706 0.275274 0.244524
0.878028 0.279925 0.249175
0.092020 0.345072 0.227197
0.187619 0.349335 0.231460
0.284465 0.353653 0.235778
0.382556 0.358027 0.240152
0.481894 0.362456 0.244581
0.582478 0.366941 0.249066
0.684308 0.371481 0.253606
0.787384 0.376077 0.258202
0.891706 0.380728 0.262853
0.105699 0.445876 0.240876
0.201298 0.450138 0.245138
0.298143 0.454456 0.249456
0.396234 0.458830 0.253830
0.495572 0.463259 0.258259
0.596156 0.467744 0.262744
0.697986 0.472284 0.267284
0.801062 0.476880 0.271880
0.905385 0.481531 0.276531
0.119377 0.546679 0.254554
0.214976 0.550941 0.258816
0.311821 0.555259 0.263134
0.409912 0.559633 0.267508
0.509250 0.564062 0.271937
0.609834 0.568547 0.276422
0.711664 0.573087 0.280962
0.814740 0.577683 0.285558
0.919063 0.582335 0.290210
0.133055 0.647482 0.268232
0.228654 0.651744 0.272494
0.325499 0.656063 0.276813
0.423591 0.660436 0.281186
0.522928 0.664865 0.285615
0.623512 0.669350 0.290100
0.725342 0.673891 0.294641
0.828419 0.678486 0.299236
0.932741 0.683138 0.303888
0.146733 0.748285 0.281910
0.242332 0.752548 0.286173
0.339177 0.756866 0.290491
0.437269 0.761239 0.294864
0.536607 0.765669 0.299294
0.637190 0.770153 0.303778
0.739020 0.774694 0.308319
0.842097 0.779290 0.312915
0.946419 0.783941 0.317566
0.160411 0.849088 0.295588
0.256010 0.853351 0.299851
0.352856 0.857669 0.304169
0.450947 0.862043 0.308543
0.550285 0.866472 0.312972
0.650869 0.870957 0.317457
0.752699 0.875497 0.321997
0.855775 0.880093 0.326593
0.960097 0.884744 0.331244
0.052253 0.043930 0.267380
0.147852 0.048192 0.271642
0.244697 0.052510 0.275960
0.342789 0.056884 0.280334
0.442126 0.061313 0.284763
0.542710 0.065798 0.289248
0.644540 0.070338 0.293788
0.747616 0.074934 0.298384
0.851939 0.079586 0.303036
0.065931 0.144733 0.281058
0.161530 0.148996 0.285321
0.258375 0.153314 0.289639
0.356467 0.157687 0.294012
0.455804 0.162116 0.298441
0.556388 0.166601 0.302926
0.658218 0.171142 0.307467
0.761295 0.175738 0.312063
0.865617 0.180389 0.316714
0.079609 0.245536 0.294736
0.175208 0.249799 0.298999
0.272054 0.254117 0.303317
0.370145 0.258490 0.307690
0.469483 0.262920 0.312120
0.570066 0.267404 0.316604
0.671897 0.271945 0.321145
0.774973 0.276541 0.325741
0.879295 0.281192 0.330392
0.093287 0.346339 0.308414
0.188886 0.350602 0.312677
0.285732 0.354920 0.316995
0.383823 0.359294 0.321369
0.483161 0.363723 0.325798
0.583745 0.368208 0.330283
0.685575 0.372748 0.334823
0.788651 0.377344 0.339419
0.892973 0.381995 0.344070
0.106966 0.447143 0.322093
0.202565 0.451405 0.326355
0.299410 0.455723 0.330673
0.397501 0.460097 0.335047
0.496839 0.464526 0.339476
0.597423 0.469011 0.343961
0.699253 0.473551 0.348501
0.802329 0.478147 0.353097
0.906652 0.482799 0.357749
0.120644 0.547946 0.335771
0.216243 0.552208 0.340033
0.313088 0.556526 0.344351
0.411180 0.560900 0.348725
0.510517 0.565329 0.353154
0.611101 0.569814 0.357639
0.712931 0.574354 0.362179
0.816007 0.578950 0.366775
0.920330 0.583602 0.371427
0.134322 0.648749 0.349449
0.229921 0.653012 0.353712
0.326766 0.657330 0.358030
0.424858 0.661703 0.362403
0.524195 0.666132 0.366832
0.624779 0.670617 0.371317
0.726609 0.675158 0.375858
0.829686 0.679754 0.380454
0.934008 0.684405 0.385105
0.148000 0.749552 0.363127
0.243599 0.753815 0.367390
0.340445 0.758133 0.371708
0.438536 0.762506 0.376081
0.537874 0.766936 0.380511
0.638457 0.771420 0.384995
0.740288 0.775961 0.389536
0.843364 0.780557 0.394132
0.947686 0.785208 0.398783
0.161678 0.850355 0.376805
0.257277 0.854618 0.381068
0.354123 0.858936 0.385386
0.452214 0.863310 0.389760
0.551552 0.867739 0.394189
0.652136 0.872224 0.398674
0.753966 0.876764 0.403214
0.857042 0.881360 0.407810
0.961364 0.886011 0.412461
0.053520 0.045197 0.348597
0.149119 0.049459 0.352859
0.245964 0.053778 0.357178
0.344056 0.058151 0.361551
0.443393 0.062580 0.365980
0.543977 0.067065 0.370465
0.645807 0.071606 0.375006
0.748884 0.076201 0.379601
0.853206 0.080853 0.384253
0.067198 0.146000 0.362275
0.162797 0.150263 0.366538
0.259642 0.154581 0.370856
0.357734 0.158954 0.375229
0.457072 0.163384 0.379659
0.557655 0.167868 0.384143
0.659485 0.172409 0.388684
0.762562 0.177005 0.393280
0.866884 0.181656 0.397931
0.080876 0.246803 0.375953
0.176475 0.251066 0.380216
0.273321 0.255384 0.384534
0.371412 0.259758 0.388908
0.470750 0.264187 0.393337
0.571334 0.268672 0.397822
0.673164 0.273212 0.402362
0.776240 0.277808 0.406958
0.880562 0.282459 0.411609
0.094555 0.347607 0.389632
0.190154 0.351869 0.393894
0.286999 0.356187 0.398212
0.385090 0.360561 0.402586
0.484428 0.364990 0.407015
0.585012 0.369475 0.411500
0.686842 0.374015 0.416040
0.789918 0.378611 0.420636
0.894241 0.383263 0.425288
0.108233 0.448410 0.403310
0.203832 0.452672 0.407572
0.300677 0.456990 0.411890
0.398768 0.461364 0.416264
0.498106 0.465793 0.420693
0.598690 0.470278 0.425178
0.700520 0.474818 0.429718
0.803596 0.479414 0.434314
0.907919 0.484066 0.438966
0.121911 0.549213 0.416988
0.217510 0.553475 0.421250
0.314355 0.557794 0.425569
0.412447 0.562167 0.429942
0.511784 0.566596 0.434371
0.612368 0.571081 0.438856
0.714198 0.575622 0.443397
0.817275 0.580217 0.447992
0.921597 0.584869 0.452644
0.135589 0.650016 0.430666
0.231188 0.654279 0.434929
0.328033 0.658597 0.439247
0.426125 0.662970 0.443620
0.525463 0.667400 0.448050
0.626046 0.671884 0.452534
0.727876 0.676425 0.457075
0.830953 0.681021 0.461671
0.935275 0.685672 0.466322
0.149267 0.750819 0.444344
0.244866 0.755082 0.448607
0.341712 0.759400 0.452925
0.439803 0.763774 0.457299
0.539141 0.768203 0.461728
0.639725 0.772688 0.466213
0.741555 0.777228 0.470753
0.844631 0.781824 0.475349
0.948953 0.786475 0.480000
0.162946 0.851623 0.458023
0.258545 0.855885 0.462285
0.355390 0.860203 0.466603
0.453481 0.864577 0.470977
0.552819 0.869006 0.475406
0.653403 0.873491 0.479891
0.755233 0.878031 0.484431
0.858309 0.882627 0.489027
0.962632 0.887279 0.493679
0.054787 0.046464 0.429814
0.150386 0.050727 0.434077
0.247231 0.055045 0.438395
0.345323 0.059418 0.442768
0.444660 0.063848 0.447198
0.545244 0.068332 0.451682
0.647074 0.072873 0.456223
0.750151 0.077469 0.460819
0.854473 0.082120 0.465470
0.068465 0.147267 0.443492
0.164064 0.151530 0.447755
0.260910 0.155848 0.452073
0.359001 0.160222 0.456447
0.458339 0.164651 0.460876
0.558922 0.169135 0.465360
0.660753 0.173676 0.469901
0.763829 0.178272 0.474497
0.868151 0.182923 0.479148
0.082143 0.248070 0.457170
0.177742 0.252333 0.461433
0.274588 0.256651 0.465751
0.372679 0.261025 0.470125
0.472017 0.265454 0.474554
0.572601 0.269939 0.479039
0.674431 0.274479 0.483579
0.777507 0.279075 0.488175
0.881830 0.283726 0.492826
0.095822 0.348874 0.470849
0.191421 0.353136 0.475111
0.288266 0.357454 0.479429
0.386357 0.361828 0.483803
0.485695 0.366257 0.488232
0.586279 0.370742 0.492717
0.688109 0.375282 0.497257
0.791185 0.379878 0.501853
0.895508 0.384530 0.506505
0.109500 0.449677 0.484527
0.205099 0.453939 0.488789
0.301944 0.458257 0.493107
0.400036 0.462631 0.497481
0.499373 0.467060 0.501910
0.599957 0.471545 0.506395
0.701787 0.476085 0.510935
0.804863 0.480681 0.515531
0.909186 0.485333 0.520183
0.123178 0.550480 0.498205
0.218777 0.554743 0.502468
0.315622 0.559061 0.506786
0.413714 0.563434 0.511159
0.513051 0.567864 0.515589
0.613635 0.572348 0.520073
0.715465 0.576889 0.524614
0.818542 0.581485 0.529210
0.922864 0.586136 0.533861
0.136856 0.651283 0.511883
0.232455 0.655546 0.516146
0.329301 0.659864 0.520464
0.427392 0.664238 0.524838
0.526730 0.668667 0.529267
0.627313 0.673151 0.533751
0.729144 0.677692 0.538292
0.832220 0.682288 0.542888
0.936542 0.686939 0.547539
0.150534 0.752086 0.525561
0.246133 0.756349 0.529824
0.342979 0.760667 0.534142
0.441070 0.765041 0.538516
0.540408 0.769470 0.542945
0.640992 0.773955 0.547430
0.742822 0.778495 0.551970
0.845898 0.783091 0.556566
0.950221 0.787742 0.561217
0.164213 0.852890 0.539240
0.259812 0.857152 0.543502
0.356657 0.861470 0.547820
0.454748 0.865844 0.552194
0.554086 0.870273 0.556623
0.654670 0.874758 0.561108
0.756500 0.879298 0.565648
0.859576 0.883894 0.570244
0.963899 0.888546 0.574896
0.056054 0.047731 0.511031
0.151653 0.051994 0.515294
0.248498 0.056312 0.519612
0.346590 0.060685 0.523985
0.445928 0.065115 0.528415
0.546511 0.069599 0.532899
0.648341 0.074140 0.537440
0.751418 0.078736 0.542036
0.855740 0.083387 0.546687
0.069732 0.148534 0.524709
0.165331 0.152797 0.528972
0.262177 0.157115 0.533290
0.360268 0.161489 0.537664
0.459606 0.165918 0.542093
0.560190 0.170403 0.546578
0.662020 0.174943 0.551118
0.765096 0.179539 0.555714
0.869418 0.184190 0.560365
0.083411 0.249338 0.538388
0.179010 0.253600 0.542650
0.275855 0.257918 0.546968
0.373946 0.262292 0.551342
0.473284 0.266721 0.555771
0.573868 0.271206 0.560256
0.675698 0.275746 0.564796
0.778774 0.280342 0.569392
0.883097 0.284994 0.574044
0.097089 0.350141 0.552066
0.192688 0.354403 0.556328
0.289533 0.358721 0.560646
0.387624 0.363095 0.565020
0.486962 0.367524 0.569449
0.587546 0.372009 0.573934
0.689376 0.376549 0.578474
0.792452 0.381145 0.583070
0.896775 0.385797 0.587722
0.110767 0.450944 0.565744
0.206366 0.455206 0.570006
0.303211 0.459525 0.574325
0.401303 0.463898 0.578698
0.500640 0.468327 0.583127
0.601224 0.472812 0.587612
0.703054 0.477353 0.592153
0.806131 0.481948 0.596748
0.910453 0.486600 0.601400
0.124445 0.551747 0.579422
0.220044 0.556010 0.583685
0.316889 0.560328 0.588003
0.414981 0.564701 0.592376
0.514319 0.569131 0.596806
0.614902 0.573615 0.601290
0.716732 0.578156 0.605831
0.819809 0.582752 0.610427
0.924131 0.587403 0.615078
0.138123 0.652550 0.593100
0.233722 0.656813 0.597363
0.330568 0.661131 0.601681
0.428659 0.665505 0.606055
0.527997 0.669934 0.610484
0.628581 0.674419 0.614969
0.730411 0.678959 0.619509
0.833487 0.683555 0.624105
0.937809 0.688206 0.628756
0.151802 0.753354 0.606779
0.247401 0.757616 0.611041
0.344246 0.761934 0.615359
0.442337 0.766308 0.619733
0.541675 0.770737 0.624162
0.642259 0.775222 0.628647
0.744089 0.779762 0.633187
0.847165 0.784358 0.637783
0.951488 0.789010 0.642435
0.165480 0.854157 0.620457
0.261079 0.858419 0.624719
0.357924 0.862737 0.629037
0.456015 0.867111 0.633411
0.555353 0.871540 0.637840
0.655937 0.876025 0.642325
0.757767 0.880565 0.646865
0.860843 0.885161 0.651461
0.965166 0.889813 0.656113
0.057321 0.048998 0.592248
0.152920 0.053261 0.596511
0.249766 0.057579 0.600829
0.347857 0.061953 0.605203
0.447195 0.066382 0.609632
0.547779 0.070867 0.614117
0.649609 0.075407 0.618657
0.752685 0.080003 0.623253
0.857007 0.084654 0.627904
0.070999 0.149801 0.605926
0.166599 0.154064 0.610189
0.263444 0.158382 0.614507
0.361535 0.162756 0.618881
0.460873 0.167185 0.623310
0.561457 0.171670 0.627795
0.663287 0.176210 0.632335
0.766363 0.180806 0.636931
0.870686 0.185457 0.641582
0.084678 0.250605 0.619605
0.180277 0.254867 0.623867
0.277122 0.259185 0.628185
0.375213 0.263559 0.632559
0.474551 0.267988 0.636988
0.575135 0.272473 0.641473
0.676965 0.277013 0.646013
0.780041 0.281609 0.650609
0.884364 0.286261 0.655261
0.098356 0.351408 0.633283
0.193955 0.355670 0.637545
0.290800 0.359988 0.641863
0.388892 0.364362 0.646237
0.488229 0.368791 0.650666
0.588813 0.373276 0.655151
0.690643 0.377816 0.659691
0.793719 0.382412 0.664287
0.898042 0.387064 0.668939
0.112034 0.452211 0.646961
0.207633 0.456474 0.651224
0.304478 0.460792 0.655542
0.402570 0.465165 0.659915
0.501907 0.469595 0.664345
0.602491 0.474079 0.668829
0.704321 0.478620 0.673370
0.807398 0.483216 0.677966
0.911720 0.487867 0.682617
0.125712 0.553014 0.660639
0.221311 0.557277 0.664902
0.318157 0.561595 0.669220
0.416248 0.565969 0.673594
0.515586 0.570398 0.678023
0.616170 0.574883 0.682508
0.718000 0.579423 0.687048
0.821076 0.584019 0.691644
0.925398 0.588670 0.696295
0.139390 0.653817 0.674317
0.234990 0.658080 0.678580
0.331835 0.662398 0.682898
0.429926 0.666772 0.687272
0.529264 0.671201 0.691701
0.629848 0.675686 0.696186
0.731678 0.680226 0.700726
0.834754 0.684822 0.705322
0.939077 0.689473 0.709973
0.153069 0.754621 0.687996
0.248668 0.758883 0.692258
0.345513 0.763201 0.696576
0.443604 0.767575 0.700950
0.542942 0.772004 0.705379
0.643526 0.776489 0.709864
0.745356 0.781029 0.714404
0.848432 0.785625 0.719000
0.952755 0.790277 0.723652
0.166747 0.855424 0.701674
0.262346 0.859686 0.705936
0.359191 0.864004 0.710254
0.457283 0.868378 0.714628
0.556620 0.872807 0.719057
0.657204 0.877292 0.723542
0.759034 0.881832 0.728082
0.862110 0.886428 0.732678
0.966433 0.891080 0.737330
0.058588 0.050265 0.673465
0.154187 0.054528 0.677728
0.251033 0.058846 0.682046
0.349124 0.063220 0.686420
0.448462 0.067649 0.690849
0.549046 0.072134 0.695334
0.650876 0.076674 0.699874
0.753952 0.081270 0.704470
0.858274 0.085921 0.709121
0.072267 0.151069 0.687144
0.167866 0.155331 0.691406
0.264711 0.159649 0.695724
0.362802 0.164023 0.700098
0.462140 0.168452 0.704527
0.562724 0.172937 0.709012
0.664554 0.177477 0.713552
0.767630 0.182073 0.718148
0.871953 0.186725 0.722800
0.085945 0.251872 0.700822
0.181544 0.256134 0.705084
0.278389 0.260452 0.709402
0.376481 0.264826 0.713776
0.475818 0.269255 0.718205
0.576402 0.273740 0.722690
0.678232 0.278280 0.727230
0.781308 0.282876 0.731826
0.885631 0.287528 0.736478
0.099623 0.352675 0.714500
0.195222 0.356937 0.718762
0.292067 0.361256 0.723081
0.390159 0.365629 0.727454
0.489496 0.370058 0.731883
0.590080 0.374543 0.736368
0.691910 0.379084 0.740909
0.794987 0.383679 0.745504
0.899309 0.388331 0.750156
0.113301 0.453478 0.728178
0.208900 0.457741 0.732441
0.305745 0.462059 0.736759
0.403837 0.466432 0.741132
0.503175 0.470862 0.745562
0.603758 0.475346 0.750046
0.705588 0.479887 0.754587
0.808665 0.484483 0.759183
0.912987 0.489134 0.763834
0.126979 0.554281 0.741856
0.222578 0.558544 0.746119
0.319424 0.562862 0.750437
0.417515 0.567236 0.754811
0.516853 0.571665 0.759240
0.617437 0.576150 0.763725
0.719267 0.580690 0.768265
0.822343 0.585286 0.772861
0.926665 0.589937 0.777512
0.140658 0.655085 0.755535
0.236257 0.659347 0.759797
0.333102 0.663665 0.764115
0.431193 0.668039 0.768489
0.530531 0.672468 0.772918
0.631115 0.676953 0.777403
0.732945 0.681493 0.781943
0.836021 0.686089 0.786539
0.940344 0.690741 0.791191
0.154336 0.755888 0.769213
0.249935 0.760150 0.773475
0.346780 0.764468 0.777793
0.444872 0.768842 0.782167
0.544209 0.773271 0.786596
0.644793 0.777756 0.791081
0.746623 0.782296 0.795621
0.849699 0.786892 0.800217
0.954022 0.791544 0.804869
0.168014 0.856691 0.782891
0.263613 0.860953 0.787153
0.360458 0.865272 0.791472
0.458550 0.869645 0.795845
0.557887 0.874074 0.800274
0.658471 0.878559 0.804759
0.760301 0.883100 0.809300
0.863378 0.887695 0.813895
0.967700 0.892347 0.818547
